; generated by Slic3r 1.2.9 on 2019-06-12 at 11:31:13

; external perimeters extrusion width = 0.40mm
; perimeters extrusion width = 0.48mm
; infill extrusion width = 0.48mm
; solid infill extrusion width = 0.48mm
; top infill extrusion width = 0.48mm

M107
M190 S65 ; set bed temperature
M104 S205 ; set temperature
G28 ; home all axes
G1 Z5 F5000 ; lift nozzle

M109 S205 ; wait for temperature to be reached
G21 ; set units to millimeters
G90 ; use absolute coordinates
M82 ; use absolute distances for extrusion
G92 E0
G1 E-2.00000 F2400.00000
G92 E0
G1 Z1.000 F4800.000
G1 X69.915 Y70.753 F4800.000
G1 Z0.350 F4800.000
G1 E2.00000 F2400.00000
G1 X71.668 Y69.274 E2.15641 F1800.000
G1 X73.820 Y68.481 E2.31281
G1 X75.000 Y68.375 E2.39360
G1 X95.000 Y68.375 E3.75754
G1 X97.259 Y68.772 E3.91395
G1 X99.247 Y69.915 E4.07035 F1800.000
G1 X100.726 Y71.668 E4.22676
G1 X101.519 Y73.820 E4.38317
G1 X101.625 Y75.000 E4.46395
G1 X101.625 Y95.000 E5.82789
G1 X101.228 Y97.259 E5.98430
G1 X100.085 Y99.247 E6.14071
G1 X98.332 Y100.726 E6.29711
G1 X96.180 Y101.519 E6.45352
G1 X95.000 Y101.625 E6.53430
G1 X75.000 Y101.625 E7.89824
G1 X72.741 Y101.228 E8.05465
G1 X70.753 Y100.085 E8.21106
G1 X69.274 Y98.332 E8.36746
G1 X68.481 Y96.180 E8.52387
G1 X68.375 Y95.000 E8.60465
G1 X68.375 Y75.000 E9.96860
G1 X68.772 Y72.741 E10.12500
G1 X69.886 Y70.805 E10.27732
G1 E8.27732 F2400.00000
G92 E0
G1 Z1.350 F4800.000
G1 X94.025 Y94.025 F4800.000
G1 Z0.350 F4800.000
G1 E2.00000 F2400.00000
G1 X75.975 Y94.025 E3.23097 F1800.000
G1 X75.975 Y75.975 E4.46195
G1 X94.025 Y75.975 E5.69292
G1 X94.025 Y93.965 E6.91981
G1 X94.650 Y94.650 F4800.000
G1 X75.350 Y94.650 E8.23601 F1800.000
G1 X75.350 Y75.350 E9.55222
G1 X94.650 Y75.350 E10.86842
G1 X94.650 Y94.590 E12.18054
G1 X94.304 Y94.450 F4800.000
G1 E10.18054 F2400.00000
G92 E0
G1 Z1.350 F4800.000
G1 X93.584 Y76.721 F4800.000
G1 Z0.350 F4800.000
G1 E2.00000 F2400.00000
G1 X93.279 Y76.416 E2.02955 F1800.000
G1 X92.391 Y76.416 E2.09034
G1 X93.584 Y77.609 E2.20586
G1 X93.584 Y78.496 E2.26665
G1 X91.504 Y76.416 E2.46813
G1 X90.616 Y76.416 E2.52892
G1 X93.584 Y79.384 E2.81637
G1 X93.584 Y80.271 E2.87716
G1 X89.729 Y76.416 E3.25057
G1 X88.841 Y76.416 E3.31136
G1 X93.584 Y81.159 E3.77074
G1 X93.584 Y82.046 E3.83153
G1 X87.954 Y76.416 E4.37688
G1 X87.066 Y76.416 E4.43766
G1 X93.584 Y82.934 E5.06898
G1 X93.584 Y83.821 E5.12976
G1 X86.179 Y76.416 E5.84704
G1 X85.291 Y76.416 E5.90783
G1 X93.584 Y84.709 E6.71107
G1 X93.584 Y85.596 E6.77186
G1 X84.404 Y76.416 E7.66107
G1 X83.516 Y76.416 E7.72186
G1 X93.584 Y86.484 E8.69703
G1 X93.584 Y87.371 E8.75782
G1 X82.629 Y76.416 E9.81896
G1 X81.741 Y76.416 E9.87975
G1 X93.584 Y88.259 E11.02686
G1 X93.584 Y89.146 E11.08764
G1 X80.854 Y76.416 E12.32071
G1 X79.966 Y76.416 E12.38150
G1 X93.584 Y90.034 E13.70054
G1 X93.584 Y90.921 E13.76133
G1 X79.079 Y76.416 E15.16633
G1 X78.191 Y76.416 E15.22712
G1 X93.584 Y91.809 E16.71809
G1 X93.584 Y92.697 E16.77887
G1 X77.303 Y76.416 E18.35581
G1 X76.436 Y76.436 E18.41524
G1 X93.564 Y93.564 E20.07427
G1 X92.697 Y93.584 E20.13370
G1 X76.416 Y77.303 E21.71063
G1 X76.416 Y78.191 E21.77142
G1 X91.809 Y93.584 E23.26239
G1 X90.921 Y93.584 E23.32318
G1 X76.416 Y79.079 E24.72818
G1 X76.416 Y79.966 E24.78896
G1 X90.034 Y93.584 E26.10800
G1 X89.146 Y93.584 E26.16879
G1 X76.416 Y80.854 E27.40186
G1 X76.416 Y81.741 E27.46264
G1 X88.259 Y93.584 E28.60975
G1 X87.371 Y93.584 E28.67054
G1 X76.416 Y82.629 E29.73168
G1 X76.416 Y83.516 E29.79246
G1 X86.484 Y93.584 E30.76764
G1 X85.596 Y93.584 E30.82842
G1 X76.416 Y84.404 E31.71763
G1 X76.416 Y85.291 E31.77842
G1 X84.709 Y93.584 E32.58166
G1 X83.821 Y93.584 E32.64245
G1 X76.416 Y86.179 E33.35972
G1 X76.416 Y87.066 E33.42051
G1 X82.934 Y93.584 E34.05182
G1 X82.046 Y93.584 E34.11261
G1 X76.416 Y87.954 E34.65796
G1 X76.416 Y88.841 E34.71874
G1 X81.159 Y93.584 E35.17812
G1 X80.271 Y93.584 E35.23891
G1 X76.416 Y89.729 E35.61232
G1 X76.416 Y90.616 E35.67311
G1 X79.384 Y93.584 E35.96056
G1 X78.496 Y93.584 E36.02135
G1 X76.416 Y91.504 E36.22283
G1 X76.416 Y92.391 E36.28362
G1 X77.609 Y93.584 E36.39913
G1 X76.721 Y93.584 E36.45992
G1 X76.416 Y93.279 E36.48947
M104 S200 ; set temperature
M140 S60 ; wait for bed temperature to be reached
G1 E34.48947 F2400.00000
G92 E0
G1 Z1.350 F4800.000
G1 X94.423 Y94.423 F4800.000
G1 Z0.650 F4800.000
G1 E2.00000 F2400.00000
G1 X75.577 Y94.423 E2.73844 F1800.000
G1 X75.577 Y75.577 E3.47687
G1 X94.423 Y75.577 E4.21531
G1 X94.423 Y94.363 E4.95139
G1 X94.800 Y94.800 F4800.000
G1 X75.200 Y94.800 E5.56674 F900.000
G1 X75.200 Y75.200 E6.18209
G1 X94.800 Y75.200 E6.79743
G1 X94.800 Y94.740 E7.41090
G1 X94.454 Y94.600 F4800.000
G1 X93.916 Y94.134 F4800.000
G1 X94.134 Y93.916 E7.42315 F3600.000
G1 X94.134 Y93.314 E7.44709
G1 X93.314 Y94.134 E7.49321
G1 X92.713 Y94.134 E7.51715
G1 X94.134 Y92.713 E7.59713
G1 X94.134 Y92.111 E7.62107
G1 X92.111 Y94.134 E7.73491
G1 X91.509 Y94.134 E7.75886
G1 X94.134 Y91.509 E7.90656
G1 X94.134 Y90.908 E7.93050
G1 X90.908 Y94.134 E8.11207
G1 X90.306 Y94.134 E8.13601
G1 X94.134 Y90.306 E8.35144
G1 X94.134 Y89.704 E8.37538
G1 X89.704 Y94.134 E8.62467
G1 X89.103 Y94.134 E8.64861
G1 X94.134 Y89.103 E8.93176
G1 X94.134 Y88.501 E8.95570
G1 X88.501 Y94.134 E9.27272
G1 X87.899 Y94.134 E9.29666
G1 X94.134 Y87.899 E9.64753
G1 X94.134 Y87.298 E9.67148
G1 X87.298 Y94.134 E10.05621
G1 X86.696 Y94.134 E10.08016
G1 X94.134 Y86.696 E10.49875
G1 X94.134 Y86.094 E10.52270
G1 X86.094 Y94.134 E10.97516
G1 X85.493 Y94.134 E10.99910
G1 X94.134 Y85.493 E11.48542
G1 X94.134 Y84.891 E11.50937
G1 X84.891 Y94.134 E12.02955
G1 X84.289 Y94.134 E12.05349
G1 X94.134 Y84.289 E12.60754
G1 X94.134 Y83.688 E12.63148
G1 X83.688 Y94.134 E13.21939
G1 X83.086 Y94.134 E13.24333
G1 X94.134 Y83.086 E13.86510
G1 X94.134 Y82.485 E13.88905
G1 X82.485 Y94.134 E14.54468
G1 X81.883 Y94.134 E14.56862
G1 X94.134 Y81.883 E15.25812
G1 X94.134 Y81.281 E15.28206
G1 X81.281 Y94.134 E16.00542
G1 X80.680 Y94.134 E16.02936
G1 X94.134 Y80.680 E16.78658
G1 X94.134 Y80.078 E16.81052
G1 X80.078 Y94.134 E17.60160
G1 X79.476 Y94.134 E17.62555
G1 X94.134 Y79.476 E18.45049
G1 X94.134 Y78.875 E18.47443
G1 X78.875 Y94.134 E19.33323
G1 X78.273 Y94.134 E19.35718
G1 X94.134 Y78.273 E20.24984
G1 X94.134 Y77.671 E20.27379
G1 X77.671 Y94.134 E21.20032
G1 X77.070 Y94.134 E21.22426
G1 X94.134 Y77.070 E22.18465
G1 X94.134 Y76.468 E22.20859
G1 X76.468 Y94.134 E23.20284
G1 X75.886 Y94.114 E23.22601
G1 X94.114 Y75.886 E24.25187
G1 X93.532 Y75.866 E24.27503
G1 X75.866 Y93.532 E25.26928
G1 X75.866 Y92.930 E25.29323
G1 X92.930 Y75.866 E26.25361
G1 X92.329 Y75.866 E26.27756
G1 X75.866 Y92.329 E27.20409
G1 X75.866 Y91.727 E27.22803
G1 X91.727 Y75.866 E28.12070
G1 X91.125 Y75.866 E28.14464
G1 X75.866 Y91.125 E29.00344
G1 X75.866 Y90.524 E29.02739
G1 X90.524 Y75.866 E29.85233
G1 X89.922 Y75.866 E29.87627
G1 X75.866 Y89.922 E30.66735
G1 X75.866 Y89.320 E30.69130
G1 X89.320 Y75.866 E31.44851
G1 X88.719 Y75.866 E31.47246
G1 X75.866 Y88.719 E32.19581
G1 X75.866 Y88.117 E32.21976
G1 X88.117 Y75.866 E32.90925
G1 X87.515 Y75.866 E32.93319
G1 X75.866 Y87.515 E33.58882
G1 X75.866 Y86.914 E33.61277
G1 X86.914 Y75.866 E34.23454
G1 X86.312 Y75.866 E34.25848
G1 X75.866 Y86.312 E34.84639
G1 X75.866 Y85.711 E34.87033
G1 X85.711 Y75.866 E35.42438
G1 X85.109 Y75.866 E35.44832
G1 X75.866 Y85.109 E35.96851
G1 X75.866 Y84.507 E35.99245
G1 X84.507 Y75.866 E36.47877
G1 X83.906 Y75.866 E36.50272
G1 X75.866 Y83.906 E36.95517
G1 X75.866 Y83.304 E36.97912
G1 X83.304 Y75.866 E37.39772
G1 X82.702 Y75.866 E37.42166
G1 X75.866 Y82.702 E37.80639
G1 X75.866 Y82.101 E37.83034
G1 X82.101 Y75.866 E38.18121
G1 X81.499 Y75.866 E38.20516
G1 X75.866 Y81.499 E38.52217
G1 X75.866 Y80.897 E38.54611
G1 X80.897 Y75.866 E38.82926
G1 X80.296 Y75.866 E38.85320
G1 X75.866 Y80.296 E39.10249
G1 X75.866 Y79.694 E39.12644
G1 X79.694 Y75.866 E39.34186
G1 X79.092 Y75.866 E39.36580
G1 X75.866 Y79.092 E39.54737
G1 X75.866 Y78.491 E39.57131
G1 X78.491 Y75.866 E39.71901
G1 X77.889 Y75.866 E39.74296
G1 X75.866 Y77.889 E39.85680
G1 X75.866 Y77.287 E39.88074
G1 X77.287 Y75.866 E39.96072
G1 X76.686 Y75.866 E39.98466
G1 X75.866 Y76.686 E40.03078
G1 X75.866 Y76.084 E40.05472
G1 X76.084 Y75.866 E40.06697
G1 E38.06697 F2400.00000
G92 E0
G1 Z1.650 F4800.000
G1 X94.423 Y94.423 F4800.000
G1 Z0.950 F4800.000
G1 E2.00000 F2400.00000
G1 X75.577 Y94.423 E2.73844 F1800.000
G1 X75.577 Y75.577 E3.47687
G1 X94.423 Y75.577 E4.21531
G1 X94.423 Y94.363 E4.95139
G1 X94.800 Y94.800 F4800.000
G1 X75.200 Y94.800 E5.56674 F900.000
G1 X75.200 Y75.200 E6.18209
G1 X94.800 Y75.200 E6.79743
G1 X94.800 Y94.740 E7.41090
G1 X94.454 Y94.600 F4800.000
G1 E5.41090 F2400.00000
G92 E0
G1 Z1.950 F4800.000
G1 X94.134 Y76.084 F4800.000
G1 Z0.950 F4800.000
G1 E2.00000 F2400.00000
G1 X93.916 Y75.866 E2.01225 F3600.000
G1 X93.314 Y75.866 E2.03620
G1 X94.134 Y76.686 E2.08231
G1 X94.134 Y77.287 E2.10626
G1 X92.713 Y75.866 E2.18623
G1 X92.111 Y75.866 E2.21018
G1 X94.134 Y77.889 E2.32402
G1 X94.134 Y78.491 E2.34796
G1 X91.509 Y75.866 E2.49566
G1 X90.908 Y75.866 E2.51961
G1 X94.134 Y79.092 E2.70117
G1 X94.134 Y79.694 E2.72511
G1 X90.306 Y75.866 E2.94054
G1 X89.704 Y75.866 E2.96448
G1 X94.134 Y80.296 E3.21377
G1 X94.134 Y80.897 E3.23772
G1 X89.103 Y75.866 E3.52086
G1 X88.501 Y75.866 E3.54481
G1 X94.134 Y81.499 E3.86182
G1 X94.134 Y82.101 E3.88576
G1 X87.899 Y75.866 E4.23664
G1 X87.298 Y75.866 E4.26058
G1 X94.134 Y82.702 E4.64532
G1 X94.134 Y83.304 E4.66926
G1 X86.696 Y75.866 E5.08786
G1 X86.094 Y75.866 E5.11180
G1 X94.134 Y83.906 E5.56426
G1 X94.134 Y84.507 E5.58821
G1 X85.493 Y75.866 E6.07453
G1 X84.891 Y75.866 E6.09847
G1 X94.134 Y85.109 E6.61865
G1 X94.134 Y85.711 E6.64260
G1 X84.289 Y75.866 E7.19664
G1 X83.688 Y75.866 E7.22059
G1 X94.134 Y86.312 E7.80850
G1 X94.134 Y86.914 E7.83244
G1 X83.086 Y75.866 E8.45421
G1 X82.485 Y75.866 E8.47815
G1 X94.134 Y87.515 E9.13378
G1 X94.134 Y88.117 E9.15773
G1 X81.883 Y75.866 E9.84722
G1 X81.281 Y75.866 E9.87117
G1 X94.134 Y88.719 E10.59452
G1 X94.134 Y89.320 E10.61847
G1 X80.680 Y75.866 E11.37568
G1 X80.078 Y75.866 E11.39963
G1 X94.134 Y89.922 E12.19071
G1 X94.134 Y90.524 E12.21465
G1 X79.476 Y75.866 E13.03959
G1 X78.875 Y75.866 E13.06354
G1 X94.134 Y91.125 E13.92234
G1 X94.134 Y91.727 E13.94628
G1 X78.273 Y75.866 E14.83895
G1 X77.671 Y75.866 E14.86289
G1 X94.134 Y92.329 E15.78942
G1 X94.134 Y92.930 E15.81336
G1 X77.070 Y75.866 E16.77375
G1 X76.468 Y75.866 E16.79770
G1 X94.134 Y93.532 E17.79195
G1 X94.114 Y94.114 E17.81511
G1 X75.886 Y75.886 E18.84097
G1 X75.866 Y76.468 E18.86413
G1 X93.532 Y94.134 E19.85839
G1 X92.930 Y94.134 E19.88233
G1 X75.866 Y77.070 E20.84272
G1 X75.866 Y77.671 E20.86666
G1 X92.329 Y94.134 E21.79319
G1 X91.727 Y94.134 E21.81713
G1 X75.866 Y78.273 E22.70980
G1 X75.866 Y78.875 E22.73374
G1 X91.125 Y94.134 E23.59255
G1 X90.524 Y94.134 E23.61649
G1 X75.866 Y79.476 E24.44143
G1 X75.866 Y80.078 E24.46538
G1 X89.922 Y94.134 E25.25646
G1 X89.320 Y94.134 E25.28040
G1 X75.866 Y80.680 E26.03762
G1 X75.866 Y81.281 E26.06156
G1 X88.719 Y94.134 E26.78492
G1 X88.117 Y94.134 E26.80886
G1 X75.866 Y81.883 E27.49835
G1 X75.866 Y82.485 E27.52230
G1 X87.515 Y94.134 E28.17793
G1 X86.914 Y94.134 E28.20187
G1 X75.866 Y83.086 E28.82364
G1 X75.866 Y83.688 E28.84759
G1 X86.312 Y94.134 E29.43549
G1 X85.711 Y94.134 E29.45944
G1 X75.866 Y84.289 E30.01348
G1 X75.866 Y84.891 E30.03743
G1 X85.109 Y94.134 E30.55761
G1 X84.507 Y94.134 E30.58155
G1 X75.866 Y85.493 E31.06788
G1 X75.866 Y86.094 E31.09182
G1 X83.906 Y94.134 E31.54428
G1 X83.304 Y94.134 E31.56822
G1 X75.866 Y86.696 E31.98682
G1 X75.866 Y87.298 E32.01076
G1 X82.702 Y94.134 E32.39550
G1 X82.101 Y94.134 E32.41944
G1 X75.866 Y87.899 E32.77032
G1 X75.866 Y88.501 E32.79426
G1 X81.499 Y94.134 E33.11127
G1 X80.897 Y94.134 E33.13522
G1 X75.866 Y89.103 E33.41837
G1 X75.866 Y89.704 E33.44231
G1 X80.296 Y94.134 E33.69160
G1 X79.694 Y94.134 E33.71554
G1 X75.866 Y90.306 E33.93097
G1 X75.866 Y90.908 E33.95491
G1 X79.092 Y94.134 E34.13647
G1 X78.491 Y94.134 E34.16042
G1 X75.866 Y91.509 E34.30812
G1 X75.866 Y92.111 E34.33206
G1 X77.889 Y94.134 E34.44590
G1 X77.287 Y94.134 E34.46985
G1 X75.866 Y92.713 E34.54982
G1 X75.866 Y93.314 E34.57377
G1 X76.686 Y94.134 E34.61988
G1 X76.084 Y94.134 E34.64383
G1 X75.866 Y93.916 E34.65608
M106 S237.15
G1 E32.65608 F2400.00000
G92 E0
G1 Z1.950 F4800.000
G1 X94.423 Y94.423 F4800.000
G1 Z1.250 F4800.000
G1 E2.00000 F2400.00000
G1 X75.577 Y94.423 E2.73844 F1800.000
G1 X75.577 Y75.577 E3.47687
G1 X94.423 Y75.577 E4.21531
G1 X94.423 Y94.363 E4.95139
G1 X94.800 Y94.800 F4800.000
G1 X75.200 Y94.800 E5.56674 F900.000
G1 X75.200 Y75.200 E6.18209
G1 X94.800 Y75.200 E6.79743
G1 X94.800 Y94.740 E7.41090
G1 X94.454 Y94.600 F4800.000
G1 E5.41090 F2400.00000
G92 E0
G1 Z2.250 F4800.000
G1 X92.303 Y94.134 F4800.000
G1 Z1.250 F4800.000
G1 E2.00000 F2400.00000
G1 X94.134 Y92.303 E2.10145 F4800.000
G1 X94.134 Y88.575 E2.24754
G1 X89.784 Y94.134 E2.52413
G1 X86.379 Y94.134 E2.65753
G1 X94.134 Y86.379 E3.08725
G1 X94.134 Y81.792 E3.26696
G1 X84.525 Y94.134 E3.87982
G1 X80.455 Y94.134 E4.03930
G1 X94.134 Y80.455 E4.79728
G1 X93.470 Y75.866 E4.97896
G1 X79.267 Y94.134 E5.88564
G1 X75.866 Y92.799 E6.02879
G1 X92.799 Y75.866 E6.96708
G1 X88.212 Y75.866 E7.14682
G1 X75.866 Y91.737 E7.93469
G1 X75.866 Y86.875 E8.12523
G1 X86.875 Y75.866 E8.73526
G1 X82.953 Y75.866 E8.88892
G1 X75.866 Y84.955 E9.34053
G1 X75.866 Y80.951 E9.49743
G1 X80.951 Y75.866 E9.77920
G1 X77.695 Y75.866 E9.90679
G1 X75.866 Y78.173 E10.02214
G1 E8.02214 F2400.00000
G92 E0
G1 Z2.250 F4800.000
G1 X94.423 Y94.423 F4800.000
G1 Z1.550 F4800.000
G1 E2.00000 F2400.00000
G1 X75.577 Y94.423 E2.73844 F1800.000
G1 X75.577 Y75.577 E3.47687
G1 X94.423 Y75.577 E4.21531
G1 X94.423 Y94.363 E4.95139
G1 X94.800 Y94.800 F4800.000
G1 X75.200 Y94.800 E5.56674 F900.000
G1 X75.200 Y75.200 E6.18209
G1 X94.800 Y75.200 E6.79743
G1 X94.800 Y94.740 E7.41090
G1 X94.454 Y94.600 F4800.000
G1 E5.41090 F2400.00000
G92 E0
G1 Z2.550 F4800.000
G1 X78.173 Y94.134 F4800.000
G1 Z1.550 F4800.000
G1 E2.00000 F2400.00000
G1 X75.866 Y92.305 E2.11535 F4800.000
G1 X75.866 Y89.049 E2.24293
G1 X80.951 Y94.134 E2.52470
G1 X84.955 Y94.134 E2.68160
G1 X75.866 Y87.047 E3.13321
G1 X75.866 Y83.125 E3.28688
G1 X86.875 Y94.134 E3.89691
G1 X91.737 Y94.134 E4.08744
G1 X75.866 Y81.788 E4.87531
G1 X75.866 Y77.201 E5.05505
G1 X92.799 Y94.134 E5.99335
G1 X94.134 Y90.733 E6.13649
G1 X75.866 Y76.530 E7.04318
G1 X80.455 Y75.866 E7.22486
G1 X94.134 Y89.545 E7.98284
G1 X94.134 Y85.475 E8.14231
G1 X81.792 Y75.866 E8.75517
G1 X86.379 Y75.866 E8.93489
G1 X94.134 Y83.621 E9.36460
G1 X94.134 Y80.216 E9.49801
G1 X88.575 Y75.866 E9.77460
G1 X92.303 Y75.866 E9.92068
G1 X94.134 Y77.697 E10.02213
G1 E8.02213 F2400.00000
G92 E0
G1 Z2.550 F4800.000
G1 X94.423 Y94.423 F4800.000
G1 Z1.850 F4800.000
G1 E2.00000 F2400.00000
G1 X75.577 Y94.423 E2.73844 F1800.000
G1 X75.577 Y75.577 E3.47687
G1 X94.423 Y75.577 E4.21531
G1 X94.423 Y94.363 E4.95139
G1 X94.800 Y94.800 F4800.000
G1 X75.200 Y94.800 E5.56674 F900.000
G1 X75.200 Y75.200 E6.18209
G1 X94.800 Y75.200 E6.79743
G1 X94.800 Y94.740 E7.41090
G1 X94.454 Y94.600 F4800.000
G1 E5.41090 F2400.00000
G92 E0
G1 Z2.850 F4800.000
G1 X92.303 Y94.134 F4800.000
G1 Z1.850 F4800.000
G1 E2.00000 F2400.00000
G1 X94.134 Y92.303 E2.10145 F4800.000
G1 X94.134 Y88.575 E2.24754
G1 X89.784 Y94.134 E2.52413
G1 X86.379 Y94.134 E2.65753
G1 X94.134 Y86.379 E3.08725
G1 X94.134 Y81.792 E3.26696
G1 X84.525 Y94.134 E3.87982
G1 X80.455 Y94.134 E4.03930
G1 X94.134 Y80.455 E4.79728
G1 X93.470 Y75.866 E4.97896
G1 X79.267 Y94.134 E5.88564
G1 X75.866 Y92.799 E6.02879
G1 X92.799 Y75.866 E6.96708
G1 X88.212 Y75.866 E7.14682
G1 X75.866 Y91.737 E7.93469
G1 X75.866 Y86.875 E8.12523
G1 X86.875 Y75.866 E8.73526
G1 X82.953 Y75.866 E8.88892
G1 X75.866 Y84.955 E9.34053
G1 X75.866 Y80.951 E9.49743
G1 X80.951 Y75.866 E9.77920
G1 X77.695 Y75.866 E9.90679
G1 X75.866 Y78.173 E10.02214
G1 E8.02214 F2400.00000
G92 E0
G1 Z2.850 F4800.000
G1 X94.423 Y94.423 F4800.000
G1 Z2.150 F4800.000
G1 E2.00000 F2400.00000
G1 X75.577 Y94.423 E2.73844 F1800.000
G1 X75.577 Y75.577 E3.47687
G1 X94.423 Y75.577 E4.21531
G1 X94.423 Y94.363 E4.95139
G1 X94.800 Y94.800 F4800.000
G1 X75.200 Y94.800 E5.56674 F900.000
G1 X75.200 Y75.200 E6.18209
G1 X94.800 Y75.200 E6.79743
G1 X94.800 Y94.740 E7.41090
G1 X94.454 Y94.600 F4800.000
G1 E5.41090 F2400.00000
G92 E0
G1 Z3.150 F4800.000
G1 X78.173 Y94.134 F4800.000
G1 Z2.150 F4800.000
G1 E2.00000 F2400.00000
G1 X75.866 Y92.305 E2.11535 F4800.000
G1 X75.866 Y89.049 E2.24293
G1 X80.951 Y94.134 E2.52470
G1 X84.955 Y94.134 E2.68160
G1 X75.866 Y87.047 E3.13321
G1 X75.866 Y83.125 E3.28688
G1 X86.875 Y94.134 E3.89691
G1 X91.737 Y94.134 E4.08744
G1 X75.866 Y81.788 E4.87531
G1 X75.866 Y77.201 E5.05505
G1 X92.799 Y94.134 E5.99335
G1 X94.134 Y90.733 E6.13649
G1 X75.866 Y76.530 E7.04318
G1 X80.455 Y75.866 E7.22486
G1 X94.134 Y89.545 E7.98284
G1 X94.134 Y85.475 E8.14231
G1 X81.792 Y75.866 E8.75517
G1 X86.379 Y75.866 E8.93489
G1 X94.134 Y83.621 E9.36460
G1 X94.134 Y80.216 E9.49801
G1 X88.575 Y75.866 E9.77460
G1 X92.303 Y75.866 E9.92068
G1 X94.134 Y77.697 E10.02213
G1 E8.02213 F2400.00000
G92 E0
G1 Z3.150 F4800.000
G1 X94.423 Y94.423 F4800.000
G1 Z2.450 F4800.000
G1 E2.00000 F2400.00000
G1 X75.577 Y94.423 E2.73844 F1800.000
G1 X75.577 Y75.577 E3.47687
G1 X94.423 Y75.577 E4.21531
G1 X94.423 Y94.363 E4.95139
G1 X94.800 Y94.800 F4800.000
G1 X75.200 Y94.800 E5.56674 F900.000
G1 X75.200 Y75.200 E6.18209
G1 X94.800 Y75.200 E6.79743
G1 X94.800 Y94.740 E7.41090
G1 X94.454 Y94.600 F4800.000
G1 E5.41090 F2400.00000
G92 E0
G1 Z3.450 F4800.000
G1 X92.303 Y94.134 F4800.000
G1 Z2.450 F4800.000
G1 E2.00000 F2400.00000
G1 X94.134 Y92.303 E2.10145 F4800.000
G1 X94.134 Y88.575 E2.24754
G1 X89.784 Y94.134 E2.52413
G1 X86.379 Y94.134 E2.65753
G1 X94.134 Y86.379 E3.08725
G1 X94.134 Y81.792 E3.26696
G1 X84.525 Y94.134 E3.87982
G1 X80.455 Y94.134 E4.03930
G1 X94.134 Y80.455 E4.79728
G1 X93.470 Y75.866 E4.97896
G1 X79.267 Y94.134 E5.88564
G1 X75.866 Y92.799 E6.02879
G1 X92.799 Y75.866 E6.96708
G1 X88.212 Y75.866 E7.14682
G1 X75.866 Y91.737 E7.93469
G1 X75.866 Y86.875 E8.12523
G1 X86.875 Y75.866 E8.73526
G1 X82.953 Y75.866 E8.88892
G1 X75.866 Y84.955 E9.34053
G1 X75.866 Y80.951 E9.49743
G1 X80.951 Y75.866 E9.77920
G1 X77.695 Y75.866 E9.90679
G1 X75.866 Y78.173 E10.02214
G1 E8.02214 F2400.00000
G92 E0
G1 Z3.450 F4800.000
G1 X94.423 Y94.423 F4800.000
G1 Z2.750 F4800.000
G1 E2.00000 F2400.00000
G1 X75.577 Y94.423 E2.73844 F1800.000
G1 X75.577 Y75.577 E3.47687
G1 X94.423 Y75.577 E4.21531
G1 X94.423 Y94.363 E4.95139
G1 X94.800 Y94.800 F4800.000
G1 X75.200 Y94.800 E5.56674 F900.000
G1 X75.200 Y75.200 E6.18209
G1 X94.800 Y75.200 E6.79743
G1 X94.800 Y94.740 E7.41090
G1 X94.454 Y94.600 F4800.000
G1 E5.41090 F2400.00000
G92 E0
G1 Z3.750 F4800.000
G1 X78.173 Y94.134 F4800.000
G1 Z2.750 F4800.000
G1 E2.00000 F2400.00000
G1 X75.866 Y92.305 E2.11535 F4800.000
G1 X75.866 Y89.049 E2.24293
G1 X80.951 Y94.134 E2.52470
G1 X84.955 Y94.134 E2.68160
G1 X75.866 Y87.047 E3.13321
G1 X75.866 Y83.125 E3.28688
G1 X86.875 Y94.134 E3.89691
G1 X91.737 Y94.134 E4.08744
G1 X75.866 Y81.788 E4.87531
G1 X75.866 Y77.201 E5.05505
G1 X92.799 Y94.134 E5.99335
G1 X94.134 Y90.733 E6.13649
G1 X75.866 Y76.530 E7.04318
G1 X80.455 Y75.866 E7.22486
G1 X94.134 Y89.545 E7.98284
G1 X94.134 Y85.475 E8.14231
G1 X81.792 Y75.866 E8.75517
G1 X86.379 Y75.866 E8.93489
G1 X94.134 Y83.621 E9.36460
G1 X94.134 Y80.216 E9.49801
G1 X88.575 Y75.866 E9.77460
G1 X92.303 Y75.866 E9.92068
G1 X94.134 Y77.697 E10.02213
M106 S221.85
G1 E8.02213 F2400.00000
G92 E0
G1 Z3.750 F4800.000
G1 X94.423 Y94.423 F4800.000
G1 Z3.050 F4800.000
G1 E2.00000 F2400.00000
G1 X75.577 Y94.423 E2.73844 F1800.000
G1 X75.577 Y75.577 E3.47687
G1 X94.423 Y75.577 E4.21531
G1 X94.423 Y94.363 E4.95139
G1 X94.800 Y94.800 F4800.000
G1 X75.200 Y94.800 E5.56674 F900.000
G1 X75.200 Y75.200 E6.18209
G1 X94.800 Y75.200 E6.79743
G1 X94.800 Y94.740 E7.41090
G1 X94.454 Y94.600 F4800.000
G1 E5.41090 F2400.00000
G92 E0
G1 Z4.050 F4800.000
G1 X92.303 Y94.134 F4800.000
G1 Z3.050 F4800.000
G1 E2.00000 F2400.00000
G1 X94.134 Y92.303 E2.10145 F4800.000
G1 X94.106 Y88.610 E2.24616
G1 X89.784 Y94.134 E2.52100
G1 X86.379 Y94.134 E2.65441
G1 X91.904 Y88.609 E2.96056
G1 E0.96056 F2400.00000
G92 E0
G1 Z4.050 F4800.000
G1 X89.953 Y87.185 F4800.000
G1 Z3.050 F4800.000
G1 E2.00000 F2400.00000
G1 X84.525 Y94.134 E2.34548 F4800.000
G1 X80.455 Y94.134 E2.50496
G1 X89.954 Y84.635 E3.03131
G1 E1.03131 F2400.00000
G92 E0
G1 Z4.050 F4800.000
G1 X90.271 Y79.992 F4800.000
G1 Z3.050 F4800.000
G1 E2.00000 F2400.00000
G1 X79.267 Y94.134 E2.70212 F4800.000
G1 X75.866 Y92.799 E2.84527
G1 X88.673 Y79.992 E3.55494
G1 X85.013 Y79.992 E3.69836
G1 X75.866 Y91.737 E4.28168
G1 X75.866 Y86.875 E4.47221
G1 X82.749 Y79.992 E4.85362
G1 X79.754 Y79.992 E4.97096
G1 X75.866 Y84.955 E5.21802
G1 X75.866 Y80.951 E5.37492
G1 X77.008 Y79.809 E5.43819
G1 X75.866 Y78.173 E5.51637
G1 X77.007 Y76.754 E5.58771
G1 E3.58771 F2400.00000
G92 E0
G1 Z4.050 F4800.000
G1 X92.341 Y76.324 F4800.000
G1 Z3.050 F4800.000
G1 E2.00000 F2400.00000
G1 X92.799 Y75.866 E2.02535 F4800.000
G1 X93.470 Y75.866 E2.05165
G1 X92.341 Y77.271 E2.12228
G1 X94.134 Y80.455 E2.26546
G1 X93.861 Y80.728 E2.28057
G1 E0.28057 F2400.00000
G92 E0
G1 Z4.050 F4800.000
G1 X91.913 Y79.788 F4800.000
G1 Z3.050 F4800.000
G1 E2.00000 F2400.00000
M106 S255
G1 X92.135 Y79.566 E2.01133 F2400.000
G1 X92.136 Y78.952 E2.03345
G1 X91.300 Y79.788 E2.07606
G1 X90.687 Y79.788 E2.09817
G1 X92.136 Y78.338 E2.17206
G1 X92.136 Y77.725 E2.19418
G1 X90.073 Y79.788 E2.29936
G1 X89.460 Y79.788 E2.32146
G1 X92.137 Y77.111 E2.45792
G1 X92.137 Y76.498 E2.48004
G1 X88.847 Y79.788 E2.64778
G1 X88.233 Y79.788 E2.66989
G1 X92.125 Y75.897 E2.86826
G1 X91.538 Y75.869 E2.88941
G1 X87.620 Y79.788 E3.08917
G1 X87.007 Y79.788 E3.11128
G1 X90.925 Y75.869 E3.31104
G1 X90.312 Y75.869 E3.33315
G1 X86.393 Y79.788 E3.53291
G1 X85.780 Y79.788 E3.55502
G1 X89.699 Y75.869 E3.75478
G1 X89.085 Y75.869 E3.77689
G1 X85.167 Y79.788 E3.97665
G1 X84.554 Y79.788 E3.99875
G1 X88.472 Y75.869 E4.19852
G1 X87.859 Y75.869 E4.22062
G1 X83.940 Y79.788 E4.42039
G1 X83.327 Y79.788 E4.44249
G1 X87.245 Y75.869 E4.64226
G1 X86.632 Y75.869 E4.66436
G1 X82.714 Y79.788 E4.86412
G1 X82.100 Y79.788 E4.88623
G1 X86.019 Y75.869 E5.08599
G1 X85.406 Y75.869 E5.10810
G1 X81.487 Y79.788 E5.30786
G1 X80.874 Y79.788 E5.32997
G1 X84.792 Y75.869 E5.52973
G1 X84.179 Y75.869 E5.55184
G1 X80.261 Y79.788 E5.75160
G1 X79.647 Y79.788 E5.77371
G1 X83.566 Y75.869 E5.97347
G1 X82.952 Y75.869 E5.99558
G1 X79.034 Y79.788 E6.19534
G1 X78.421 Y79.788 E6.21745
G1 X82.339 Y75.869 E6.41721
G1 X81.726 Y75.869 E6.43932
G1 X77.807 Y79.788 E6.63908
G1 X77.223 Y79.759 E6.66017
G1 X81.113 Y75.869 E6.85844
G1 X80.499 Y75.869 E6.88055
G1 X77.212 Y79.157 E7.04814
G1 X77.212 Y78.544 E7.07023
G1 X79.886 Y75.869 E7.20656
G1 X79.273 Y75.869 E7.22867
G1 X77.211 Y77.931 E7.33375
G1 X77.211 Y77.318 E7.35585
G1 X78.659 Y75.869 E7.42968
G1 X78.046 Y75.869 E7.45179
G1 X77.211 Y76.705 E7.49437
G1 X77.211 Y76.092 E7.51646
G1 X77.433 Y75.869 E7.52779
M106 S221.85
G1 E5.52779 F2400.00000
G92 E0
G1 Z4.050 F4800.000
G1 X90.382 Y80.931 F4800.000
G1 Z3.050 F4800.000
G1 E2.00000 F2400.00000
M106 S255
G1 X90.160 Y81.153 E2.01124 F2400.000
G1 X90.159 Y81.764 E2.03311
G1 X90.993 Y80.931 E2.07528
G1 X91.604 Y80.931 E2.09713
G1 X90.159 Y82.376 E2.17022
G1 X90.159 Y82.987 E2.19209
G1 X92.215 Y80.931 E2.29609
G1 X92.826 Y80.932 E2.31795
G1 X90.158 Y83.599 E2.45287
G1 X90.158 Y84.210 E2.47475
G1 X93.436 Y80.932 E2.64059
G1 X94.047 Y80.932 E2.66245
G1 X90.158 Y84.822 E2.85922
G1 X90.158 Y85.433 E2.88109
G1 X94.131 Y81.460 E3.08208
G1 X94.131 Y82.071 E3.10394
G1 X90.157 Y86.045 E3.30495
G1 X90.157 Y86.656 E3.32682
G1 X94.131 Y82.683 E3.52784
G1 X94.131 Y83.294 E3.54970
G1 X90.157 Y87.268 E3.75074
G1 X90.157 Y87.879 E3.77261
G1 X94.131 Y83.905 E3.97366
G1 X94.131 Y84.516 E3.99552
G1 X90.243 Y88.404 E4.19221
G1 X90.854 Y88.404 E4.21406
G1 X94.131 Y85.127 E4.37984
G1 X94.131 Y85.739 E4.40170
G1 X91.465 Y88.405 E4.53657
G1 X92.076 Y88.405 E4.55843
G1 X94.131 Y86.350 E4.66239
G1 X94.131 Y86.961 E4.68425
G1 X92.687 Y88.405 E4.75731
G1 X93.297 Y88.405 E4.77917
G1 X94.131 Y87.572 E4.82131
G1 X94.131 Y88.183 E4.84318
G1 X93.908 Y88.406 E4.85442
M106 S221.85
M106 S229.5
G1 E2.85442 F2400.00000
G92 E0
G1 Z4.050 F4800.000
G1 X94.423 Y94.423 F4800.000
G1 Z3.350 F4800.000
G1 E2.00000 F2400.00000
G1 X75.577 Y94.423 E2.73844 F1800.000
G1 X75.577 Y75.577 E3.47687
G1 X94.423 Y75.577 E4.21531
G1 X94.423 Y94.363 E4.95139
G1 X94.800 Y94.800 F4800.000
G1 X75.200 Y94.800 E5.56674 F900.000
G1 X75.200 Y75.200 E6.18209
G1 X94.800 Y75.200 E6.79743
G1 X94.800 Y94.740 E7.41090
G1 X94.454 Y94.600 F4800.000
G1 E5.41090 F2400.00000
G92 E0
G1 Z4.350 F4800.000
G1 X93.198 Y88.610 F4800.000
G1 Z3.350 F4800.000
G1 E2.00000 F2400.00000
G1 X94.134 Y89.545 E2.05183 F4800.000
G1 X94.134 Y90.733 E2.09839
G1 X91.445 Y88.609 E2.23265
G1 E0.23265 F2400.00000
G92 E0
G1 Z4.350 F4800.000
G1 X89.955 Y82.235 F4800.000
G1 Z3.350 F4800.000
G1 E2.00000 F2400.00000
G1 X87.114 Y79.992 E2.14183 F4800.000
G1 X84.581 Y79.992 E2.24108
G1 X89.953 Y85.365 E2.53879
G1 X89.953 Y87.491 E2.62213
G1 X80.332 Y79.992 E3.10011
G1 X78.657 Y79.992 E3.16572
G1 X92.799 Y94.134 E3.94937
G1 X91.737 Y94.134 E3.99095
G1 X75.866 Y81.788 E4.77883
G1 X75.866 Y83.125 E4.83120
G1 X86.875 Y94.134 E5.44123
G1 X84.955 Y94.134 E5.51645
G1 X75.866 Y87.047 E5.96806
G1 X75.866 Y89.049 E6.04651
G1 X80.951 Y94.134 E6.32828
G1 X78.173 Y94.134 E6.43712
G1 X75.866 Y92.305 E6.55247
G1 E4.55247 F2400.00000
G92 E0
G1 Z4.350 F4800.000
G1 X77.007 Y78.342 F4800.000
G1 Z3.350 F4800.000
G1 E2.00000 F2400.00000
G1 X75.866 Y77.201 E2.06323 F4800.000
G1 X75.866 Y76.530 E2.08954
G1 X77.007 Y77.454 E2.14707
G1 E0.14707 F2400.00000
G92 E0
G1 Z4.350 F4800.000
G1 X90.505 Y79.992 F4800.000
G1 Z3.350 F4800.000
G1 E2.00000 F2400.00000
G1 X91.239 Y80.727 E2.04071 F4800.000
G1 X94.134 Y80.216 E2.15587
G1 X92.340 Y78.786 E2.24577
G1 X92.341 Y75.905 E2.35865
G1 X94.134 Y77.697 E2.45797
G1 E0.45797 F2400.00000
G92 E0
G1 Z4.350 F4800.000
G1 X92.140 Y76.084 F4800.000
G1 Z3.350 F4800.000
G1 E2.00000 F2400.00000
G1 X91.923 Y75.866 E2.01210 F3600.000
G1 X91.328 Y75.866 E2.03546
G1 X92.140 Y76.678 E2.08057
G1 X92.140 Y77.272 E2.10391
G1 X90.734 Y75.866 E2.18203
G1 X90.140 Y75.866 E2.20538
G1 X92.139 Y77.866 E2.31652
G1 X92.139 Y78.460 E2.33986
G1 X89.546 Y75.866 E2.48400
G1 X88.952 Y75.866 E2.50736
G1 X92.139 Y79.053 E2.68451
G1 X92.138 Y79.647 E2.70785
G1 X88.357 Y75.866 E2.91802
G1 X87.763 Y75.866 E2.94137
G1 X91.688 Y79.791 E3.15951
G1 X91.094 Y79.791 E3.18286
G1 X87.169 Y75.866 E3.40101
G1 X86.575 Y75.866 E3.42436
G1 X90.499 Y79.791 E3.64250
G1 X89.905 Y79.791 E3.66585
G1 X85.981 Y75.866 E3.88400
G1 X85.386 Y75.866 E3.90735
G1 X89.311 Y79.791 E4.12549
G1 X88.717 Y79.791 E4.14885
G1 X84.792 Y75.866 E4.36699
G1 X84.198 Y75.866 E4.39034
G1 X88.123 Y79.791 E4.60848
G1 X87.528 Y79.791 E4.63184
G1 X83.604 Y75.866 E4.84998
G1 X83.010 Y75.866 E4.87333
G1 X86.934 Y79.791 E5.09147
G1 X86.340 Y79.791 E5.11483
G1 X82.415 Y75.866 E5.33297
G1 X81.821 Y75.866 E5.35632
G1 X85.746 Y79.791 E5.57446
G1 X85.152 Y79.791 E5.59782
G1 X81.227 Y75.866 E5.81596
G1 X80.633 Y75.866 E5.83931
G1 X84.557 Y79.791 E6.05745
G1 X83.963 Y79.791 E6.08081
G1 X80.039 Y75.866 E6.29895
G1 X79.444 Y75.866 E6.32230
G1 X83.369 Y79.791 E6.54044
G1 X82.775 Y79.791 E6.56380
G1 X78.850 Y75.866 E6.78194
G1 X78.256 Y75.866 E6.80529
G1 X82.181 Y79.791 E7.02343
G1 X81.586 Y79.791 E7.04679
G1 X77.662 Y75.866 E7.26493
G1 X77.208 Y76.006 E7.28361
G1 X80.992 Y79.791 E7.49397
G1 X80.398 Y79.791 E7.51733
G1 X77.208 Y76.601 E7.69464
G1 X77.208 Y77.195 E7.71801
G1 X79.804 Y79.791 E7.86228
G1 X79.210 Y79.791 E7.88564
G1 X77.208 Y77.790 E7.99687
G1 X77.209 Y78.384 E8.02023
G1 X78.615 Y79.791 E8.09842
G1 X78.021 Y79.791 E8.12177
G1 X77.209 Y78.979 E8.16692
G1 X77.209 Y79.573 E8.19028
G1 X77.427 Y79.791 E8.20239
G1 E6.20239 F2400.00000
G92 E0
G1 Z4.350 F4800.000
G1 X90.153 Y88.189 F4800.000
G1 Z3.350 F4800.000
G1 E2.00000 F2400.00000
G1 X90.371 Y88.407 E2.01247 F3600.000
G1 X90.984 Y88.407 E2.03729
G1 X90.154 Y87.577 E2.08484
G1 X90.154 Y86.965 E2.10963
G1 X91.596 Y88.408 E2.19227
G1 X92.209 Y88.408 E2.21708
G1 X90.154 Y86.353 E2.33479
G1 X90.154 Y85.741 E2.35959
G1 X92.822 Y88.408 E2.51238
G1 X93.434 Y88.408 E2.53720
G1 X90.155 Y85.129 E2.72507
G1 X90.155 Y84.517 E2.74986
G1 X94.047 Y88.409 E2.97282
G1 X94.134 Y87.883 E2.99440
G1 X90.155 Y83.905 E3.22230
G1 X90.155 Y83.292 E3.24710
G1 X94.134 Y87.271 E3.47499
G1 X94.134 Y86.658 E3.49980
G1 X90.156 Y82.680 E3.72768
G1 X90.156 Y82.068 E3.75247
G1 X94.134 Y86.046 E3.98033
G1 X94.134 Y85.434 E4.00514
G1 X90.156 Y81.456 E4.23299
G1 X90.240 Y80.928 E4.25466
G1 X94.134 Y84.821 E4.47771
G1 X94.134 Y84.209 E4.50252
G1 X90.853 Y80.928 E4.69047
G1 X91.465 Y80.928 E4.71528
G1 X94.134 Y83.596 E4.86814
G1 X94.134 Y82.984 E4.89294
G1 X92.078 Y80.928 E5.01070
G1 X92.691 Y80.929 E5.03552
G1 X94.134 Y82.372 E5.11818
G1 X94.134 Y81.759 E5.14299
G1 X93.303 Y80.929 E5.19056
G1 X93.916 Y80.929 E5.21537
G1 X94.134 Y81.147 E5.22785
M106 S216.75
G1 E3.22785 F2400.00000
G92 E0
G1 Z4.350 F4800.000
G1 X94.423 Y94.423 F4800.000
G1 Z3.650 F4800.000
G1 E2.00000 F2400.00000
G1 X75.577 Y94.423 E2.73844 F1800.000
G1 X75.577 Y75.577 E3.47687
G1 X94.423 Y75.577 E4.21531
G1 X94.423 Y94.363 E4.95139
G1 X94.800 Y94.800 F4800.000
G1 X75.200 Y94.800 E5.56674 F900.000
G1 X75.200 Y75.200 E6.18209
G1 X94.800 Y75.200 E6.79743
G1 X94.800 Y94.740 E7.41090
G1 X94.454 Y94.600 F4800.000
G1 E5.41090 F2400.00000
G92 E0
G1 Z4.650 F4800.000
G1 X92.303 Y94.134 F4800.000
G1 Z3.650 F4800.000
G1 E2.00000 F2400.00000
G1 X94.134 Y92.303 E2.10145 F4800.000
G1 X94.106 Y88.610 E2.24616
G1 X89.784 Y94.134 E2.52100
G1 X86.379 Y94.134 E2.65441
G1 X91.904 Y88.609 E2.96056
G1 E0.96056 F2400.00000
G92 E0
G1 Z4.650 F4800.000
G1 X89.953 Y87.185 F4800.000
G1 Z3.650 F4800.000
G1 E2.00000 F2400.00000
G1 X84.525 Y94.134 E2.34548 F4800.000
G1 X80.455 Y94.134 E2.50496
G1 X89.954 Y84.635 E3.03130
G1 E1.03130 F2400.00000
G92 E0
G1 Z4.650 F4800.000
G1 X90.271 Y79.992 F4800.000
G1 Z3.650 F4800.000
G1 E2.00000 F2400.00000
G1 X79.267 Y94.134 E2.70212 F4800.000
G1 X75.866 Y92.799 E2.84527
G1 X88.673 Y79.992 E3.55494
G1 X85.013 Y79.992 E3.69836
G1 X75.866 Y91.737 E4.28167
G1 X75.866 Y86.875 E4.47221
G1 X82.749 Y79.992 E4.85362
G1 X79.754 Y79.992 E4.97096
G1 X75.866 Y84.955 E5.21801
G1 X75.866 Y80.951 E5.37491
G1 X77.008 Y79.809 E5.43819
G1 X75.866 Y78.173 E5.51636
G1 X77.007 Y76.754 E5.58771
G1 E3.58771 F2400.00000
G92 E0
G1 Z4.650 F4800.000
G1 X92.341 Y76.324 F4800.000
G1 Z3.650 F4800.000
G1 E2.00000 F2400.00000
G1 X92.799 Y75.866 E2.02535 F4800.000
G1 X93.470 Y75.866 E2.05165
G1 X92.341 Y77.271 E2.12228
G1 X94.134 Y80.455 E2.26545
G1 X93.861 Y80.728 E2.28056
G1 E0.28056 F2400.00000
G92 E0
G1 Z4.650 F4800.000
G1 X91.921 Y79.791 F4800.000
G1 Z3.650 F4800.000
G1 E2.00000 F2400.00000
G1 X92.138 Y79.573 E2.01210 F1800.000
G1 X92.139 Y78.979 E2.03547
G1 X91.326 Y79.791 E2.08061
G1 X90.732 Y79.791 E2.10397
G1 X92.139 Y78.384 E2.18216
G1 X92.139 Y77.790 E2.20553
G1 X90.138 Y79.791 E2.31676
G1 X89.544 Y79.791 E2.34011
G1 X92.140 Y77.195 E2.48440
G1 X92.140 Y76.601 E2.50776
G1 X88.950 Y79.791 E2.68509
G1 X88.355 Y79.791 E2.70844
G1 X92.140 Y76.006 E2.91881
G1 X91.686 Y75.866 E2.93750
G1 X87.761 Y79.791 E3.15564
G1 X87.167 Y79.791 E3.17899
G1 X91.092 Y75.866 E3.39713
G1 X90.497 Y75.866 E3.42048
G1 X86.573 Y79.791 E3.63862
G1 X85.979 Y79.791 E3.66198
G1 X89.903 Y75.866 E3.88012
G1 X89.309 Y75.866 E3.90347
G1 X85.385 Y79.791 E4.12161
G1 X84.790 Y79.791 E4.14496
G1 X88.715 Y75.866 E4.36310
G1 X88.121 Y75.866 E4.38646
G1 X84.196 Y79.791 E4.60460
G1 X83.602 Y79.791 E4.62795
G1 X87.527 Y75.866 E4.84609
G1 X86.932 Y75.866 E4.86945
G1 X83.008 Y79.791 E5.08759
G1 X82.414 Y79.791 E5.11094
G1 X86.338 Y75.866 E5.32908
G1 X85.744 Y75.866 E5.35243
G1 X81.819 Y79.791 E5.57057
G1 X81.225 Y79.791 E5.59393
G1 X85.150 Y75.866 E5.81207
G1 X84.556 Y75.866 E5.83542
G1 X80.631 Y79.791 E6.05356
G1 X80.037 Y79.791 E6.07691
G1 X83.961 Y75.866 E6.29505
G1 X83.367 Y75.866 E6.31841
G1 X79.443 Y79.791 E6.53655
G1 X78.848 Y79.791 E6.55990
G1 X82.773 Y75.866 E6.77804
G1 X82.179 Y75.866 E6.80139
G1 X78.254 Y79.791 E7.01953
G1 X77.660 Y79.791 E7.04289
G1 X81.585 Y75.866 E7.26103
G1 X80.990 Y75.866 E7.28438
G1 X77.209 Y79.648 E7.49455
G1 X77.209 Y79.054 E7.51790
G1 X80.396 Y75.866 E7.69506
G1 X79.802 Y75.866 E7.71841
G1 X77.209 Y78.460 E7.86256
G1 X77.208 Y77.866 E7.88590
G1 X79.208 Y75.866 E7.99704
G1 X78.614 Y75.866 E8.02039
G1 X77.208 Y77.272 E8.09852
G1 X77.208 Y76.678 E8.12186
G1 X78.019 Y75.866 E8.16697
G1 X77.425 Y75.866 E8.19033
G1 X77.208 Y76.084 E8.20243
G1 E6.20243 F2400.00000
G92 E0
G1 Z4.650 F4800.000
G1 X90.374 Y80.927 F4800.000
G1 Z3.650 F4800.000
G1 E2.00000 F2400.00000
G1 X90.156 Y81.145 E2.01247 F1800.000
G1 X90.156 Y81.758 E2.03729
G1 X90.986 Y80.928 E2.08484
G1 X91.598 Y80.928 E2.10964
G1 X90.156 Y82.371 E2.19227
G1 X90.156 Y82.983 E2.21709
G1 X92.211 Y80.928 E2.33481
G1 X92.823 Y80.929 E2.35960
G1 X90.155 Y83.596 E2.51240
G1 X90.155 Y84.208 E2.53722
G1 X93.435 Y80.929 E2.72510
G1 X94.047 Y80.929 E2.74989
G1 X90.155 Y84.821 E2.97285
G1 X90.155 Y85.434 E2.99767
G1 X94.134 Y81.455 E3.22562
G1 X94.134 Y82.067 E3.25042
G1 X90.154 Y86.046 E3.47838
G1 X90.154 Y86.659 E3.50320
G1 X94.134 Y82.679 E3.73118
G1 X94.134 Y83.292 E3.75598
G1 X90.154 Y87.272 E3.98397
G1 X90.153 Y87.884 E4.00879
G1 X94.134 Y83.904 E4.23680
G1 X94.134 Y84.517 E4.26161
G1 X90.243 Y88.407 E4.48447
G1 X90.855 Y88.407 E4.50927
G1 X94.134 Y85.129 E4.69707
G1 X94.134 Y85.741 E4.72188
G1 X91.467 Y88.408 E4.87461
G1 X92.080 Y88.408 E4.89941
G1 X94.134 Y86.354 E5.01708
G1 X94.134 Y86.966 E5.04188
G1 X92.692 Y88.408 E5.12448
G1 X93.304 Y88.408 E5.14928
G1 X94.134 Y87.579 E5.19682
G1 X94.134 Y88.191 E5.22162
G1 X93.916 Y88.409 E5.23409
M106 S234.6
G1 E3.23409 F2400.00000
G92 E0
G1 Z4.650 F4800.000
G1 X92.476 Y86.086 F4800.000
G1 Z3.950 F4800.000
G1 E2.00000 F2400.00000
G1 X94.423 Y86.087 E2.07626 F1800.000
G1 X94.423 Y94.423 E2.40290
G1 X75.577 Y94.423 E3.14134
G1 X75.577 Y75.577 E3.87977
G1 X79.529 Y75.577 E4.03464
G1 X79.530 Y77.469 E4.10875
G1 X82.302 Y77.469 E4.21735
G1 X82.301 Y75.577 E4.29146
G1 X86.885 Y75.577 E4.47109
G1 X86.884 Y77.469 E4.54520
G1 X89.817 Y77.469 E4.66014
G1 X89.818 Y75.577 E4.73425
G1 X94.423 Y75.577 E4.91467
G1 X94.423 Y83.251 E5.21537
G1 X92.478 Y83.251 E5.29158
G1 X92.476 Y86.026 E5.40033
G1 X92.854 Y85.709 F4800.000
G1 X94.800 Y85.710 E5.46143 F900.000
G1 X94.800 Y94.800 E5.74682
G1 X75.200 Y94.800 E6.36217
G1 X75.200 Y75.200 E6.97752
G1 X79.907 Y75.200 E7.12528
G1 X79.907 Y77.091 E7.18466
G1 X81.924 Y77.091 E7.24799
G1 X81.923 Y75.200 E7.30737
G1 X87.263 Y75.200 E7.47499
G1 X87.262 Y77.091 E7.53437
G1 X89.440 Y77.091 E7.60277
G1 X89.441 Y75.200 E7.66216
G1 X94.800 Y75.200 E7.83039
G1 X94.800 Y83.629 E8.09502
G1 X92.855 Y83.628 E8.15609
G1 X92.854 Y85.649 E8.21953
G1 X92.854 Y86.109 F4800.000
G1 X92.188 Y83.966 F4800.000
G1 X82.590 Y76.485 E8.69637 F4800.000
G1 X86.379 Y75.866 E8.84679
G1 X86.596 Y76.083 E8.85880
G1 E6.85880 F2400.00000
G92 E0
G1 Z4.950 F4800.000
G1 X88.271 Y77.758 F4800.000
G1 Z3.950 F4800.000
G1 E2.00000 F2400.00000
G1 X93.475 Y82.962 E2.28838 F4800.000
G1 X94.134 Y80.216 E2.39902
G1 X90.107 Y77.054 E2.59965
G1 X92.303 Y75.866 E2.69749
G1 X94.134 Y77.697 E2.79894
G1 E0.79894 F2400.00000
G92 E0
G1 Z4.950 F4800.000
G1 X82.347 Y77.758 F4800.000
G1 Z3.950 F4800.000
G1 E2.00000 F2400.00000
G1 X94.134 Y89.545 E2.65317 F4800.000
G1 X94.134 Y90.733 F4800.000
G1 X75.866 Y76.530 E3.55985 F4800.000
G1 X75.866 Y77.201 F4800.000
G1 X92.799 Y94.134 E4.49814 F4800.000
G1 X91.737 Y94.134 E4.53973
G1 X75.866 Y81.788 E5.32760
G1 X75.866 Y83.125 E5.37998
G1 X86.875 Y94.134 E5.99001
G1 X84.955 Y94.134 E6.06523
G1 X75.866 Y87.047 E6.51684
G1 X75.866 Y89.049 E6.59529
G1 X80.951 Y94.134 E6.87705
G1 X78.173 Y94.134 E6.98590
G1 X75.866 Y92.305 E7.10125
G1 E5.10125 F2400.00000
G92 E0
G1 Z4.950 F4800.000
G1 X92.477 Y86.083 F4800.000
G1 Z4.250 F4800.000
G1 E2.00000 F2400.00000
G1 X94.423 Y86.083 E2.07625 F1800.000
G1 X94.423 Y94.423 E2.40301
G1 X75.577 Y94.423 E3.14145
G1 X75.577 Y75.577 E3.87988
G1 X79.696 Y75.577 E4.04127
G1 X79.697 Y77.469 E4.11540
G1 X82.480 Y77.469 E4.22443
G1 X82.479 Y75.577 E4.29855
G1 X86.702 Y75.577 E4.46405
G1 X86.701 Y77.469 E4.53818
G1 X89.628 Y77.469 E4.65284
G1 X89.629 Y75.577 E4.72696
G1 X94.423 Y75.577 E4.91481
G1 X94.423 Y83.248 E5.21539
G1 X92.478 Y83.247 E5.29159
G1 X92.477 Y86.023 E5.40033
G1 X92.854 Y85.706 F4800.000
G1 X94.800 Y85.706 E5.46142 F900.000
G1 X94.800 Y94.800 E5.74691
G1 X75.200 Y94.800 E6.36226
G1 X75.200 Y75.200 E6.97761
G1 X80.073 Y75.200 E7.13060
G1 X80.074 Y77.092 E7.18999
G1 X82.102 Y77.092 E7.25366
G1 X82.101 Y75.200 E7.31306
G1 X87.080 Y75.200 E7.46936
G1 X87.079 Y77.092 E7.52875
G1 X89.251 Y77.092 E7.59693
G1 X89.252 Y75.200 E7.65632
G1 X94.800 Y75.200 E7.83052
G1 X94.800 Y83.626 E8.09504
G1 X92.855 Y83.625 E8.15610
G1 X92.854 Y85.646 E8.21954
G1 X92.854 Y86.106 F4800.000
G1 X94.134 Y86.379 F4800.000
G1 X86.379 Y94.134 E8.64925 F4800.000
G1 X89.784 Y94.134 E8.78266
G1 X94.134 Y88.575 E9.05925
G1 X94.134 Y92.303 E9.20533
G1 X92.303 Y94.134 E9.30678
G1 E7.30678 F2400.00000
G92 E0
G1 Z5.250 F4800.000
G1 X92.189 Y84.301 F4800.000
G1 Z4.250 F4800.000
G1 E2.00000 F2400.00000
G1 X84.525 Y94.134 E2.48847 F4800.000
G1 X80.455 Y94.134 E2.64795
G1 X94.134 Y80.455 E3.40593
G1 X94.134 Y81.792 E3.45832
G1 X93.190 Y82.959 E3.51711
G1 E1.51711 F2400.00000
G92 E0
G1 Z5.250 F4800.000
G1 X93.470 Y75.866 F4800.000
G1 Z4.250 F4800.000
G1 E2.00000 F2400.00000
G1 X79.267 Y94.134 E2.90668 F4800.000
G1 X75.866 Y92.799 E3.04983
G1 X92.799 Y75.866 E3.98812
G1 E1.98812 F2400.00000
G92 E0
G1 Z5.250 F4800.000
G1 X86.745 Y77.758 F4800.000
G1 Z4.250 F4800.000
G1 E2.00000 F2400.00000
G1 X75.866 Y91.737 E2.69408 F4800.000
G1 X75.866 Y86.875 E2.88462
G1 X86.413 Y76.328 E3.46904
G1 X82.953 Y75.866 E3.60581
G1 X82.768 Y76.054 E3.61614
G1 E1.61614 F2400.00000
G92 E0
G1 Z5.250 F4800.000
G1 X81.487 Y77.758 F4800.000
G1 Z4.250 F4800.000
G1 E2.00000 F2400.00000
G1 X75.866 Y84.955 E2.35782 F4800.000
G1 X75.866 Y80.951 E2.51472
G1 X79.408 Y77.410 E2.71097
G1 X77.695 Y75.866 E2.80131
G1 X75.866 Y78.173 E2.91666
M106 S237.15
G1 E0.91666 F2400.00000
G92 E0
G1 Z5.250 F4800.000
G1 X92.477 Y86.079 F4800.000
G1 Z4.550 F4800.000
G1 E2.00000 F2400.00000
G1 X94.423 Y86.080 E2.07623 F1800.000
G1 X94.423 Y94.423 E2.40312
G1 X75.577 Y94.423 E3.14156
G1 X75.577 Y75.577 E3.87999
G1 X79.863 Y75.577 E4.04791
G1 X79.863 Y77.469 E4.12204
G1 X82.657 Y77.469 E4.23151
G1 X82.656 Y75.577 E4.30565
G1 X86.520 Y75.577 E4.45702
G1 X86.519 Y77.469 E4.53116
G1 X89.438 Y77.469 E4.64555
G1 X89.439 Y75.577 E4.71968
G1 X94.423 Y75.577 E4.91496
G1 X94.423 Y83.245 E5.21541
G1 X92.479 Y83.244 E5.29159
G1 X92.477 Y86.019 E5.40033
G1 X92.855 Y85.702 F4800.000
G1 X94.800 Y85.703 E5.46141 F900.000
G1 X94.800 Y94.800 E5.74700
G1 X75.200 Y94.800 E6.36235
G1 X75.200 Y75.200 E6.97770
G1 X80.240 Y75.200 E7.13592
G1 X80.241 Y77.092 E7.19532
G1 X82.280 Y77.092 E7.25934
G1 X82.279 Y75.200 E7.31874
G1 X86.897 Y75.200 E7.46373
G1 X86.896 Y77.092 E7.52312
G1 X89.061 Y77.092 E7.59109
G1 X89.062 Y75.200 E7.65049
G1 X94.800 Y75.200 E7.83064
G1 X94.800 Y83.622 E8.09506
G1 X92.856 Y83.621 E8.15610
G1 X92.855 Y85.642 E8.21954
G1 X92.855 Y86.102 F4800.000
G1 X92.189 Y83.967 F4800.000
G1 X82.946 Y76.761 E8.67879 F4800.000
G1 X82.347 Y77.758 F4800.000
G1 X94.134 Y89.545 E9.33193 F4800.000
G1 X94.134 Y90.733 F4800.000
G1 X75.866 Y76.530 E10.23862 F4800.000
G1 X75.866 Y77.201 F4800.000
G1 X92.799 Y94.134 E11.17691 F4800.000
G1 X91.737 Y94.134 E11.21849
G1 X75.866 Y81.788 E12.00637
G1 X75.866 Y83.125 E12.05875
G1 X86.875 Y94.134 E12.66878
G1 X84.955 Y94.134 E12.74399
G1 X75.866 Y87.047 E13.19560
G1 X75.866 Y89.049 E13.27406
G1 X80.951 Y94.134 E13.55582
G1 X78.173 Y94.134 E13.66467
G1 X75.866 Y92.305 E13.78001
G1 E11.78001 F2400.00000
G92 E0
G1 Z5.550 F4800.000
G1 X88.271 Y77.758 F4800.000
G1 Z4.550 F4800.000
G1 E2.00000 F2400.00000
G1 X93.468 Y82.955 E2.28799 F4800.000
G1 X94.134 Y80.216 E2.39844
G1 X89.727 Y76.760 E2.61788
G1 X92.303 Y75.866 E2.72470
G1 X94.134 Y77.697 E2.82615
M106 S234.6
G1 E0.82615 F2400.00000
G92 E0
G1 Z5.550 F4800.000
G1 X92.478 Y86.076 F4800.000
G1 Z4.850 F4800.000
G1 E2.00000 F2400.00000
G1 X94.423 Y86.077 E2.07621 F1800.000
G1 X94.423 Y94.423 E2.40323
G1 X75.577 Y94.423 E3.14166
G1 X75.577 Y75.577 E3.88010
G1 X80.029 Y75.577 E4.05454
G1 X80.030 Y77.469 E4.12868
G1 X82.835 Y77.469 E4.23860
G1 X82.834 Y75.577 E4.31274
G1 X86.337 Y75.577 E4.44999
G1 X86.336 Y77.469 E4.52413
G1 X89.248 Y77.469 E4.63825
G1 X89.249 Y75.577 E4.71240
G1 X94.423 Y75.577 E4.91511
G1 X94.423 Y83.242 E5.21543
G1 X92.479 Y83.241 E5.29159
G1 X92.478 Y86.016 E5.40034
G1 X92.855 Y85.699 F4800.000
G1 X94.800 Y85.700 E5.46139 F900.000
G1 X94.800 Y94.800 E5.74709
G1 X75.200 Y94.800 E6.36244
G1 X75.200 Y75.200 E6.97779
G1 X80.406 Y75.200 E7.14124
G1 X80.407 Y77.092 E7.20064
G1 X82.458 Y77.092 E7.26502
G1 X82.457 Y75.200 E7.32443
G1 X86.714 Y75.200 E7.45810
G1 X86.713 Y77.092 E7.51750
G1 X88.871 Y77.092 E7.58525
G1 X88.872 Y75.200 E7.64466
G1 X94.800 Y75.200 E7.83076
G1 X94.800 Y83.619 E8.09508
G1 X92.856 Y83.618 E8.15611
G1 X92.855 Y85.639 E8.21955
G1 X92.855 Y86.099 F4800.000
G1 X94.134 Y86.379 F4800.000
G1 X86.379 Y94.134 E8.64926 F4800.000
G1 X89.784 Y94.134 E8.78267
G1 X94.134 Y88.575 E9.05926
G1 X94.134 Y92.303 E9.20534
G1 X92.303 Y94.134 E9.30679
G1 E7.30679 F2400.00000
G92 E0
G1 Z5.850 F4800.000
G1 X92.189 Y84.300 F4800.000
G1 Z4.850 F4800.000
G1 E2.00000 F2400.00000
G1 X84.525 Y94.134 E2.48853 F4800.000
G1 X80.455 Y94.134 E2.64800
G1 X94.134 Y80.455 E3.40598
G1 X94.134 Y81.792 E3.45838
G1 X93.195 Y82.952 E3.51685
G1 E1.51685 F2400.00000
G92 E0
G1 Z5.850 F4800.000
G1 X93.470 Y75.866 F4800.000
G1 Z4.850 F4800.000
G1 E2.00000 F2400.00000
G1 X79.267 Y94.134 E2.90668 F4800.000
G1 X75.866 Y92.799 E3.04983
G1 X92.799 Y75.866 E3.98812
G1 E1.98812 F2400.00000
G92 E0
G1 Z5.850 F4800.000
G1 X86.745 Y77.759 F4800.000
G1 Z4.850 F4800.000
G1 E2.00000 F2400.00000
G1 X75.866 Y91.737 E2.69406 F4800.000
G1 X75.866 Y86.875 E2.88459
G1 X86.047 Y76.694 E3.44875
G1 E1.44875 F2400.00000
G92 E0
G1 Z5.850 F4800.000
G1 X81.486 Y77.759 F4800.000
G1 Z4.850 F4800.000
G1 E2.00000 F2400.00000
G1 X75.866 Y84.955 E2.35779 F4800.000
G1 X75.866 Y80.951 E2.51469
G1 X79.741 Y77.077 E2.72939
G1 X77.695 Y75.866 E2.82254
G1 X75.866 Y78.173 E2.93788
M106 S237.15
G1 E0.93788 F2400.00000
G92 E0
G1 Z5.850 F4800.000
G1 X92.478 Y86.073 F4800.000
G1 Z5.150 F4800.000
G1 E2.00000 F2400.00000
G1 X94.423 Y86.074 E2.07619 F1800.000
G1 X94.423 Y94.423 E2.40334
G1 X75.577 Y94.423 E3.14177
G1 X75.577 Y75.577 E3.88021
G1 X80.196 Y75.577 E4.06117
G1 X80.197 Y77.470 E4.13533
G1 X83.013 Y77.470 E4.24568
G1 X83.012 Y75.577 E4.31983
G1 X86.154 Y75.577 E4.44296
G1 X86.153 Y77.470 E4.51711
G1 X89.059 Y77.470 E4.63096
G1 X89.060 Y75.577 E4.70511
G1 X94.423 Y75.577 E4.91526
G1 X94.423 Y83.238 E5.21545
G1 X92.480 Y83.238 E5.29159
G1 X92.478 Y86.013 E5.40034
G1 X92.856 Y85.696 F4800.000
G1 X94.800 Y85.697 E5.46138 F900.000
G1 X94.800 Y94.800 E5.74719
G1 X75.200 Y94.800 E6.36253
G1 X75.200 Y75.200 E6.97788
G1 X80.573 Y75.200 E7.14656
G1 X80.574 Y77.092 E7.20597
G1 X82.635 Y77.092 E7.27070
G1 X82.634 Y75.200 E7.33011
G1 X86.532 Y75.200 E7.45246
G1 X86.531 Y77.092 E7.51188
G1 X88.682 Y77.092 E7.57941
G1 X88.683 Y75.200 E7.63882
G1 X94.800 Y75.200 E7.83088
G1 X94.800 Y83.616 E8.09510
G1 X92.857 Y83.615 E8.15611
G1 X92.856 Y85.636 E8.21955
G1 X92.856 Y86.096 F4800.000
G1 X92.190 Y83.968 F4800.000
G1 X83.302 Y77.036 E8.66122 F4800.000
G1 X82.348 Y77.759 F4800.000
G1 X94.134 Y89.545 E9.31433 F4800.000
G1 X94.134 Y90.733 F4800.000
G1 X75.866 Y76.530 E10.22101 F4800.000
G1 X75.866 Y77.201 F4800.000
G1 X92.799 Y94.134 E11.15931 F4800.000
G1 X91.737 Y94.134 E11.20089
G1 X75.866 Y81.788 E11.98877
G1 X75.866 Y83.125 E12.04115
G1 X86.875 Y94.134 E12.65118
G1 X84.955 Y94.134 E12.72639
G1 X75.866 Y87.047 E13.17800
G1 X75.866 Y89.049 E13.25645
G1 X80.951 Y94.134 E13.53822
G1 X78.173 Y94.134 E13.64706
G1 X75.866 Y92.305 E13.76241
G1 E11.76241 F2400.00000
G92 E0
G1 Z6.150 F4800.000
G1 X88.272 Y77.759 F4800.000
G1 Z5.150 F4800.000
G1 E2.00000 F2400.00000
G1 X93.462 Y82.949 E2.28761 F4800.000
G1 X94.134 Y80.216 E2.39787
G1 X89.348 Y76.466 E2.63610
G1 X92.303 Y75.866 E2.75424
G1 X94.134 Y77.697 E2.85569
M106 S234.6
G1 E0.85569 F2400.00000
G92 E0
G1 Z6.150 F4800.000
G1 X92.479 Y86.070 F4800.000
G1 Z5.450 F4800.000
G1 E2.00000 F2400.00000
G1 X94.423 Y86.070 E2.07617 F1800.000
G1 X94.423 Y94.423 E2.40345
G1 X75.577 Y94.423 E3.14188
G1 X75.577 Y75.577 E3.88032
G1 X80.362 Y75.577 E4.06781
G1 X80.363 Y77.470 E4.14197
G1 X83.191 Y77.470 E4.25276
G1 X83.190 Y75.577 E4.32693
G1 X85.971 Y75.577 E4.43593
G1 X85.970 Y77.470 E4.51009
G1 X88.869 Y77.470 E4.62367
G1 X88.870 Y75.577 E4.69783
G1 X94.423 Y75.577 E4.91541
G1 X94.423 Y83.235 E5.21547
G1 X92.480 Y83.234 E5.29160
G1 X92.479 Y86.010 E5.40034
G1 X92.856 Y85.693 F4800.000
G1 X94.800 Y85.693 E5.46137 F900.000
G1 X94.800 Y94.800 E5.74728
G1 X75.200 Y94.800 E6.36262
G1 X75.200 Y75.200 E6.97797
G1 X80.739 Y75.200 E7.15187
G1 X80.740 Y77.093 E7.21130
G1 X82.813 Y77.093 E7.27638
G1 X82.812 Y75.200 E7.33580
G1 X86.349 Y75.200 E7.44683
G1 X86.348 Y77.093 E7.50625
G1 X88.492 Y77.093 E7.57357
G1 X88.493 Y75.200 E7.63299
G1 X94.800 Y75.200 E7.83100
G1 X94.800 Y83.613 E8.09512
G1 X92.857 Y83.612 E8.15612
G1 X92.856 Y85.633 E8.21956
G1 X92.856 Y86.093 F4800.000
G1 X94.134 Y86.379 F4800.000
G1 X86.379 Y94.134 E8.64927 F4800.000
G1 X89.784 Y94.134 E8.78268
G1 X94.134 Y88.575 E9.05927
G1 X94.134 Y92.303 E9.20535
G1 X92.303 Y94.134 E9.30680
G1 E7.30680 F2400.00000
G92 E0
G1 Z6.450 F4800.000
G1 X92.190 Y84.299 F4800.000
G1 Z5.450 F4800.000
G1 E2.00000 F2400.00000
G1 X84.525 Y94.134 E2.48858 F4800.000
G1 X80.455 Y94.134 E2.64806
G1 X94.134 Y80.455 E3.40604
G1 X94.134 Y81.792 E3.45844
G1 X93.200 Y82.946 E3.51659
G1 E1.51659 F2400.00000
G92 E0
G1 Z6.450 F4800.000
G1 X93.470 Y75.866 F4800.000
G1 Z5.450 F4800.000
G1 E2.00000 F2400.00000
G1 X79.267 Y94.134 E2.90668 F4800.000
G1 X75.866 Y92.799 E3.04983
G1 X92.799 Y75.866 E3.98812
G1 E1.98812 F2400.00000
G92 E0
G1 Z6.450 F4800.000
G1 X86.744 Y77.759 F4800.000
G1 Z5.450 F4800.000
G1 E2.00000 F2400.00000
G1 X75.866 Y91.737 E2.69403 F4800.000
G1 X75.866 Y86.875 E2.88457
G1 X85.681 Y77.060 E3.42846
G1 E1.42846 F2400.00000
G92 E0
G1 Z6.450 F4800.000
G1 X81.486 Y77.759 F4800.000
G1 Z5.450 F4800.000
G1 E2.00000 F2400.00000
G1 X75.866 Y84.955 E2.35777 F4800.000
G1 X75.866 Y80.951 E2.51467
G1 X80.074 Y76.744 E2.74782
G1 X77.695 Y75.866 E2.84716
G1 X75.866 Y78.173 E2.96251
G1 E0.96251 F2400.00000
G92 E0
G1 Z6.450 F4800.000
G1 X92.479 Y86.066 F4800.000
G1 Z5.750 F4800.000
G1 E2.00000 F2400.00000
G1 X94.423 Y86.067 E2.07616 F1800.000
G1 X94.423 Y94.423 E2.40356
G1 X75.577 Y94.423 E3.14199
G1 X75.577 Y75.577 E3.88043
G1 X80.529 Y75.577 E4.07444
G1 X80.530 Y77.470 E4.14862
G1 X83.368 Y77.470 E4.25985
G1 X83.367 Y75.577 E4.33402
G1 X85.789 Y75.577 E4.42889
G1 X85.788 Y77.470 E4.50307
G1 X88.679 Y77.470 E4.61637
G1 X88.680 Y75.577 E4.69054
G1 X94.423 Y75.577 E4.91556
G1 X94.423 Y83.232 E5.21549
G1 X92.480 Y83.231 E5.29160
G1 X92.479 Y86.006 E5.40035
G1 X92.857 Y85.689 F4800.000
G1 X94.800 Y85.690 E5.46136 F900.000
G1 X94.800 Y94.800 E5.74737
G1 X75.200 Y94.800 E6.36271
G1 X75.200 Y75.200 E6.97806
G1 X80.906 Y75.200 E7.15719
G1 X80.907 Y77.093 E7.21662
G1 X82.991 Y77.093 E7.28206
G1 X82.990 Y75.200 E7.34149
G1 X86.166 Y75.200 E7.44120
G1 X86.165 Y77.093 E7.50063
G1 X88.302 Y77.093 E7.56773
G1 X88.303 Y75.200 E7.62716
G1 X94.800 Y75.200 E7.83112
G1 X94.800 Y83.609 E8.09514
G1 X92.858 Y83.609 E8.15612
G1 X92.857 Y85.629 E8.21956
G1 X92.856 Y86.089 F4800.000
G1 X92.191 Y83.969 F4800.000
G1 X83.657 Y77.312 E8.64364 F4800.000
G1 X82.348 Y77.759 F4800.000
G1 X94.134 Y89.545 E9.29673 F4800.000
G1 X94.134 Y90.733 F4800.000
G1 X75.866 Y76.530 E10.20341 F4800.000
G1 X75.866 Y77.201 F4800.000
G1 X92.799 Y94.134 E11.14170 F4800.000
G1 X91.737 Y94.134 E11.18329
G1 X75.866 Y81.788 E11.97116
G1 X75.866 Y83.125 E12.02354
G1 X86.875 Y94.134 E12.63357
G1 X84.955 Y94.134 E12.70879
G1 X75.866 Y87.047 E13.16040
G1 X75.866 Y89.049 E13.23885
G1 X80.951 Y94.134 E13.52061
G1 X78.173 Y94.134 E13.62946
G1 X75.866 Y92.305 E13.74481
G1 E11.74481 F2400.00000
G92 E0
G1 Z6.750 F4800.000
G1 X88.272 Y77.759 F4800.000
G1 Z5.750 F4800.000
G1 E2.00000 F2400.00000
G1 X93.455 Y82.942 E2.28722 F4800.000
G1 X94.134 Y80.216 E2.39729
G1 X88.969 Y76.172 E2.65433
G1 X92.303 Y75.866 E2.78551
G1 X94.134 Y77.697 E2.88696
G1 E0.88696 F2400.00000
G92 E0
G1 Z6.750 F4800.000
G1 X92.480 Y86.063 F4800.000
G1 Z6.050 F4800.000
G1 E2.00000 F2400.00000
G1 X94.423 Y86.064 E2.07614 F1800.000
G1 X94.423 Y94.423 E2.40367
G1 X75.577 Y94.423 E3.14210
G1 X75.577 Y75.577 E3.88054
G1 X80.695 Y75.577 E4.08108
G1 X80.696 Y77.470 E4.15526
G1 X83.546 Y77.470 E4.26693
G1 X83.545 Y75.577 E4.34111
G1 X85.606 Y75.577 E4.42186
G1 X85.605 Y77.470 E4.49604
G1 X88.490 Y77.470 E4.60908
G1 X88.491 Y75.577 E4.68326
G1 X94.423 Y75.577 E4.91570
G1 X94.423 Y83.229 E5.21551
G1 X92.481 Y83.228 E5.29160
G1 X92.480 Y86.003 E5.40035
G1 X92.857 Y85.686 F4800.000
G1 X94.800 Y85.687 E5.46135 F900.000
G1 X94.800 Y94.800 E5.74746
G1 X75.200 Y94.800 E6.36280
G1 X75.200 Y75.200 E6.97815
G1 X81.072 Y75.200 E7.16251
G1 X81.073 Y77.093 E7.22195
G1 X83.169 Y77.093 E7.28773
G1 X83.168 Y75.200 E7.34717
G1 X85.983 Y75.200 E7.43557
G1 X85.982 Y77.093 E7.49501
G1 X88.113 Y77.093 E7.56188
G1 X88.114 Y75.200 E7.62132
G1 X94.800 Y75.200 E7.83125
G1 X94.800 Y83.606 E8.09516
G1 X92.858 Y83.605 E8.15613
G1 X92.857 Y85.626 E8.21957
G1 X92.857 Y86.086 F4800.000
G1 X94.134 Y86.379 F4800.000
G1 X86.379 Y94.134 E8.64928 F4800.000
G1 X89.784 Y94.134 E8.78269
G1 X94.134 Y88.575 E9.05928
G1 X94.134 Y92.303 E9.20536
G1 X92.303 Y94.134 E9.30681
G1 E7.30681 F2400.00000
G92 E0
G1 Z7.050 F4800.000
G1 X92.191 Y84.298 F4800.000
G1 Z6.050 F4800.000
G1 E2.00000 F2400.00000
G1 X84.525 Y94.134 E2.48864 F4800.000
G1 X80.455 Y94.134 E2.64812
G1 X94.134 Y80.455 E3.40610
G1 X94.134 Y81.792 E3.45850
G1 X93.205 Y82.939 E3.51633
G1 E1.51633 F2400.00000
G92 E0
G1 Z7.050 F4800.000
G1 X93.470 Y75.866 F4800.000
G1 Z6.050 F4800.000
G1 E2.00000 F2400.00000
G1 X79.267 Y94.134 E2.90668 F4800.000
G1 X75.866 Y92.799 E3.04983
G1 X92.799 Y75.866 E3.98812
G1 E1.98812 F2400.00000
G92 E0
G1 Z7.050 F4800.000
G1 X86.744 Y77.760 F4800.000
G1 Z6.050 F4800.000
G1 E2.00000 F2400.00000
G1 X75.866 Y91.737 E2.69401 F4800.000
G1 X75.866 Y86.875 E2.88454
G1 X85.316 Y77.425 E3.40818
G1 E1.40818 F2400.00000
G92 E0
G1 Z7.050 F4800.000
G1 X81.485 Y77.760 F4800.000
G1 Z6.050 F4800.000
G1 E2.00000 F2400.00000
G1 X75.866 Y84.955 E2.35774 F4800.000
G1 X75.866 Y80.951 E2.51464
G1 X80.407 Y76.411 E2.76624
G1 X77.695 Y75.866 E2.87461
G1 X75.866 Y78.173 E2.98996
G1 E0.98996 F2400.00000
G92 E0
G1 Z7.050 F4800.000
G1 X92.480 Y86.060 F4800.000
G1 Z6.350 F4800.000
G1 E2.00000 F2400.00000
G1 X94.423 Y86.061 E2.07612 F1800.000
G1 X94.423 Y94.423 E2.40377
G1 X75.577 Y94.423 E3.14221
G1 X75.577 Y75.577 E3.88065
G1 X80.862 Y75.577 E4.08771
G1 X80.863 Y77.471 E4.16190
G1 X83.724 Y77.471 E4.27401
G1 X83.723 Y75.577 E4.34821
G1 X85.423 Y75.577 E4.41483
G1 X85.422 Y77.471 E4.48902
G1 X88.300 Y77.471 E4.60178
G1 X88.301 Y75.577 E4.67598
G1 X94.423 Y75.577 E4.91585
G1 X94.423 Y83.225 E5.21554
G1 X92.481 Y83.225 E5.29161
G1 X92.480 Y86.000 E5.40035
G1 X92.858 Y85.683 F4800.000
G1 X94.800 Y85.684 E5.46134 F900.000
G1 X94.800 Y94.800 E5.74755
G1 X75.200 Y94.800 E6.36289
G1 X75.200 Y75.200 E6.97824
G1 X81.239 Y75.200 E7.16783
G1 X81.240 Y77.093 E7.22727
G1 X83.346 Y77.093 E7.29341
G1 X83.345 Y75.200 E7.35286
G1 X85.801 Y75.200 E7.42994
G1 X85.800 Y77.093 E7.48938
G1 X87.923 Y77.093 E7.55604
G1 X87.924 Y75.200 E7.61549
G1 X94.800 Y75.200 E7.83137
G1 X94.800 Y83.603 E8.09518
G1 X92.858 Y83.602 E8.15613
G1 X92.858 Y85.623 E8.21957
G1 X92.857 Y86.083 F4800.000
G1 X92.192 Y83.969 F4800.000
G1 X84.013 Y77.588 E8.62607 F4800.000
G1 X82.349 Y77.760 F4800.000
G1 X94.134 Y89.545 E9.27912 F4800.000
G1 X94.134 Y90.733 F4800.000
G1 X75.866 Y76.530 E10.18581 F4800.000
G1 X75.866 Y77.201 F4800.000
G1 X92.799 Y94.134 E11.12410 F4800.000
G1 X91.737 Y94.134 E11.16569
G1 X75.866 Y81.788 E11.95356
G1 X75.866 Y83.125 E12.00594
G1 X86.875 Y94.134 E12.61597
G1 X84.955 Y94.134 E12.69118
G1 X75.866 Y87.047 E13.14279
G1 X75.866 Y89.049 E13.22125
G1 X80.951 Y94.134 E13.50301
G1 X78.173 Y94.134 E13.61186
G1 X75.866 Y92.305 E13.72720
G1 E11.72720 F2400.00000
G92 E0
G1 Z7.350 F4800.000
G1 X88.273 Y77.760 F4800.000
G1 Z6.350 F4800.000
G1 E2.00000 F2400.00000
G1 X93.449 Y82.936 E2.28683 F4800.000
G1 X94.134 Y80.216 E2.39672
G1 X88.590 Y75.878 E2.67256
G1 X92.303 Y75.866 E2.81805
G1 X94.134 Y77.697 E2.91950
G1 E0.91950 F2400.00000
G92 E0
G1 Z7.350 F4800.000
G1 X92.481 Y86.057 F4800.000
G1 Z6.650 F4800.000
G1 E2.00000 F2400.00000
G1 X94.423 Y86.057 E2.07610 F1800.000
G1 X94.423 Y94.423 E2.40388
G1 X75.577 Y94.423 E3.14232
G1 X75.577 Y75.577 E3.88076
G1 X81.028 Y75.577 E4.09435
G1 X81.029 Y77.471 E4.16855
G1 X83.901 Y77.471 E4.28110
G1 X83.901 Y75.577 E4.35530
G1 X85.240 Y75.577 E4.40780
G1 X85.239 Y77.471 E4.48200
G1 X88.110 Y77.471 E4.59449
G1 X88.111 Y75.577 E4.66869
G1 X94.423 Y75.577 E4.91600
G1 X94.423 Y83.222 E5.21556
G1 X92.482 Y83.221 E5.29161
G1 X92.481 Y85.997 E5.40035
G1 X92.858 Y85.680 F4800.000
G1 X94.800 Y85.680 E5.46132 F900.000
G1 X94.800 Y94.800 E5.74764
G1 X75.200 Y94.800 E6.36298
G1 X75.200 Y75.200 E6.97833
G1 X81.405 Y75.200 E7.17315
G1 X81.406 Y77.094 E7.23260
G1 X83.524 Y77.094 E7.29909
G1 X83.523 Y75.200 E7.35854
G1 X85.618 Y75.200 E7.42431
G1 X85.617 Y77.094 E7.48376
G1 X87.733 Y77.094 E7.55020
G1 X87.734 Y75.200 E7.60966
G1 X94.800 Y75.200 E7.83149
G1 X94.800 Y83.600 E8.09520
G1 X92.859 Y83.599 E8.15614
G1 X92.858 Y85.620 E8.21958
G1 X92.858 Y86.080 F4800.000
G1 X92.192 Y84.296 F4800.000
G1 X84.525 Y94.134 E8.70828 F4800.000
G1 X80.455 Y94.134 E8.86776
G1 X94.134 Y80.455 E9.62574
G1 X94.134 Y81.792 E9.67814
G1 X93.210 Y82.933 E9.73564
G1 E7.73564 F2400.00000
G92 E0
G1 Z7.650 F4800.000
G1 X94.000 Y86.480 F4800.000
G1 X94.000 Y86.480 F4800.000
G1 X94.134 Y86.379 F4800.000
G1 Z6.650 F4800.000
G1 E2.00000 F2400.00000
G1 X86.379 Y94.134 E2.42972 F4800.000
G1 X89.784 Y94.134 E2.56312
G1 X94.134 Y88.575 E2.83971
G1 X94.134 Y92.303 E2.98579
G1 X92.303 Y94.134 E3.08725
G1 E1.08725 F2400.00000
G92 E0
G1 Z7.650 F4800.000
G1 X86.743 Y77.760 F4800.000
G1 Z6.650 F4800.000
G1 E2.00000 F2400.00000
G1 X75.866 Y91.737 E2.69398 F4800.000
G1 X75.866 Y86.875 E2.88452
G1 X84.981 Y77.760 E3.38961
G1 X81.485 Y77.760 E3.52660
G1 X75.866 Y84.955 E3.88432
G1 X75.866 Y80.951 E4.04122
G1 X80.739 Y76.078 E4.31127
G1 X77.695 Y75.866 E4.43085
G1 X75.866 Y78.173 E4.54620
G1 E2.54620 F2400.00000
G92 E0
G1 Z7.650 F4800.000
G1 X76.000 Y76.000 F4800.000
G1 X84.324 Y85.627 F4800.000
G1 X84.570 Y77.894 F4800.000
G1 X84.570 Y76.247 F4800.000
G1 X84.323 Y76.000 F4800.000
G1 X92.799 Y75.866 F4800.000
G1 Z6.650 F4800.000
G1 E2.00000 F2400.00000
G1 X75.866 Y92.799 E2.93829 F4800.000
G1 X79.267 Y94.134 E3.08144
G1 X93.470 Y75.866 E3.98812
G1 E1.98812 F2400.00000
G92 E0
G1 Z7.650 F4800.000
G1 X92.481 Y86.053 F4800.000
G1 Z6.950 F4800.000
G1 E2.00000 F2400.00000
G1 X94.423 Y86.054 E2.07608 F1800.000
G1 X94.423 Y94.423 E2.40399
G1 X75.577 Y94.423 E3.14243
G1 X75.577 Y75.577 E3.88086
G1 X81.195 Y75.577 E4.10098
G1 X81.196 Y77.471 E4.17519
G1 X84.079 Y77.471 E4.28818
G1 X84.078 Y75.577 E4.36239
G1 X85.058 Y75.577 E4.40076
G1 X85.057 Y77.471 E4.47498
G1 X87.921 Y77.471 E4.58720
G1 X87.922 Y75.577 E4.66141
G1 X94.423 Y75.577 E4.91615
G1 X94.423 Y83.219 E5.21558
G1 X92.482 Y83.218 E5.29161
G1 X92.481 Y85.993 E5.40036
G1 X92.858 Y85.676 F4800.000
G1 X94.800 Y85.677 E5.46131 F900.000
G1 X94.800 Y94.800 E5.74773
G1 X75.200 Y94.800 E6.36307
G1 X75.200 Y75.200 E6.97842
G1 X81.572 Y75.200 E7.17847
G1 X81.573 Y77.094 E7.23793
G1 X83.702 Y77.094 E7.30477
G1 X83.701 Y75.200 E7.36423
G1 X85.435 Y75.200 E7.41867
G1 X85.434 Y77.094 E7.47813
G1 X87.543 Y77.094 E7.54436
G1 X87.544 Y75.200 E7.60382
G1 X94.800 Y75.200 E7.83161
G1 X94.800 Y83.596 E8.09522
G1 X92.859 Y83.596 E8.15614
G1 X92.858 Y85.616 E8.21958
G1 X92.858 Y86.076 F4800.000
G1 X92.193 Y83.970 F4800.000
G1 X84.505 Y77.970 E8.60171 F4800.000
G1 X88.209 Y77.697 E8.74724
G1 X93.442 Y82.929 E9.03721
G1 X94.134 Y80.216 E9.14691
G1 X88.575 Y75.866 E9.42350
G1 X92.303 Y75.866 E9.56959
G1 X94.134 Y77.697 E9.67104
G1 E7.67104 F2400.00000
G92 E0
G1 Z7.950 F4800.000
G1 X82.349 Y77.760 F4800.000
G1 Z6.950 F4800.000
G1 E2.00000 F2400.00000
G1 X94.134 Y89.545 E2.65303 F4800.000
G1 E0.65303 F2400.00000
G92 E0
G1 Z7.950 F4800.000
G1 X78.173 Y94.134 F4800.000
G1 Z6.950 F4800.000
G1 E2.00000 F2400.00000
G1 X75.866 Y92.305 E2.11535 F4800.000
G1 X75.866 Y89.049 E2.24293
G1 X80.951 Y94.134 E2.52470
G1 X84.955 Y94.134 E2.68160
G1 X75.866 Y87.047 E3.13321
G1 X75.866 Y83.125 E3.28688
G1 X86.875 Y94.134 E3.89691
G1 X91.737 Y94.134 E4.08744
G1 X75.866 Y81.788 E4.87531
G1 X75.866 Y77.201 E5.05505
G1 X92.799 Y94.134 E5.99335
G1 X94.134 Y90.733 E6.13649
G1 X75.866 Y76.530 E7.04318
G1 X80.455 Y75.866 E7.22486
G1 X80.906 Y76.317 E7.24984
G1 E5.24984 F2400.00000
G92 E0
G1 Z7.950 F4800.000
G1 X84.501 Y76.000 F4800.000
G1 X84.501 Y76.000 F4800.000
G1 X84.568 Y75.787 F4800.000
G1 Z6.950 F4800.000
G1 E2.00000 F2400.00000
G1 X84.568 Y77.681 E2.15983 F2400.000
G1 E0.15983 F2400.00000
G92 E0
G1 Z7.950 F4800.000
G1 X92.482 Y86.050 F4800.000
G1 Z7.250 F4800.000
G1 E2.00000 F2400.00000
G1 X94.423 Y86.051 E2.07606 F1800.000
G1 X94.423 Y94.423 E2.40410
G1 X75.577 Y94.423 E3.14254
G1 X75.577 Y75.577 E3.88097
G1 X81.361 Y75.577 E4.10762
G1 X81.362 Y77.471 E4.18184
G1 X84.257 Y77.471 E4.29526
G1 X84.256 Y75.577 E4.36949
G1 X84.875 Y75.577 E4.39373
G1 X84.874 Y77.471 E4.46795
G1 X87.731 Y77.471 E4.57990
G1 X87.732 Y75.577 E4.65412
G1 X94.423 Y75.577 E4.91630
G1 X94.423 Y83.216 E5.21560
G1 X92.483 Y83.215 E5.29161
G1 X92.482 Y85.990 E5.40036
G1 X92.859 Y85.673 F4800.000
G1 X94.800 Y85.674 E5.46130 F900.000
G1 X94.800 Y94.800 E5.74782
G1 X75.200 Y94.800 E6.36316
G1 X75.200 Y75.200 E6.97851
G1 X81.738 Y75.200 E7.18379
G1 X81.739 Y77.094 E7.24325
G1 X83.880 Y77.094 E7.31045
G1 X83.879 Y75.200 E7.36992
G1 X85.252 Y75.200 E7.41304
G1 X85.251 Y77.094 E7.47251
G1 X87.354 Y77.094 E7.53852
G1 X87.355 Y75.200 E7.59799
G1 X94.800 Y75.200 E7.83173
G1 X94.800 Y83.593 E8.09524
G1 X92.860 Y83.592 E8.15615
G1 X92.859 Y85.613 E8.21959
G1 X92.859 Y86.073 F4800.000
G1 X92.193 Y84.295 F4800.000
G1 X84.525 Y94.134 E8.70835 F4800.000
G1 X80.455 Y94.134 E8.86783
G1 X94.134 Y80.455 E9.62581
G1 X94.134 Y81.792 E9.67821
G1 X93.215 Y82.926 E9.73539
G1 E7.73539 F2400.00000
G92 E0
G1 Z8.250 F4800.000
G1 X94.000 Y86.474 F4800.000
G1 X94.000 Y86.474 F4800.000
G1 X94.134 Y86.379 F4800.000
G1 Z7.250 F4800.000
G1 E2.00000 F2400.00000
G1 X86.379 Y94.134 E2.42972 F4800.000
G1 X89.784 Y94.134 E2.56312
G1 X94.134 Y88.575 E2.83971
G1 X94.134 Y92.303 E2.98579
G1 X92.303 Y94.134 E3.08725
G1 E1.08725 F2400.00000
G92 E0
G1 Z8.250 F4800.000
G1 X86.743 Y77.761 F4800.000
G1 Z7.250 F4800.000
G1 E2.00000 F2400.00000
G1 X75.866 Y91.737 E2.69396 F4800.000
G1 X75.866 Y86.875 E2.88449
G1 X84.771 Y77.970 E3.37795
G1 X81.485 Y77.761 E3.50700
G1 X75.866 Y84.955 E3.86469
G1 X75.866 Y80.951 E4.02159
G1 X80.951 Y75.866 E4.30336
G1 X77.695 Y75.866 E4.43095
G1 X75.866 Y78.173 E4.54629
G1 E2.54629 F2400.00000
G92 E0
G1 Z8.250 F4800.000
G1 X76.000 Y76.000 F4800.000
G1 X78.508 Y78.508 F4800.000
G1 X80.923 Y76.016 F4800.000
G1 X80.939 Y76.016 F4800.000
G1 X88.021 Y76.061 F4800.000
G1 Z7.250 F4800.000
G1 E2.00000 F2400.00000
G1 X88.212 Y75.866 E2.01069 F4800.000
G1 X92.799 Y75.866 E2.19043
G1 X75.866 Y92.799 E3.12872
G1 X79.267 Y94.134 E3.27187
G1 X93.470 Y75.866 E4.17855
G1 E2.17855 F2400.00000
G92 E0
G1 Z8.250 F4800.000
G1 X88.154 Y76.000 F4800.000
G1 X88.154 Y76.000 F4800.000
G1 X84.565 Y75.787 F4800.000
G1 Z7.250 F4800.000
G1 E2.00000 F2400.00000
G1 X84.565 Y77.681 E2.07422 F2400.000
G1 E0.07422 F2400.00000
G92 E0
G1 Z8.250 F4800.000
G1 X92.482 Y86.047 F4800.000
G1 Z7.550 F4800.000
G1 E2.00000 F2400.00000
G1 X94.423 Y86.048 E2.07605 F1800.000
G1 X94.423 Y94.423 E2.40421
G1 X75.577 Y94.423 E3.14265
G1 X75.577 Y75.577 E3.88108
G1 X81.528 Y75.577 E4.11425
G1 X81.529 Y77.472 E4.18848
G1 X84.435 Y77.472 E4.30235
G1 X84.434 Y75.577 E4.37658
G1 X84.692 Y75.577 E4.38670
G1 X84.691 Y77.472 E4.46093
G1 X87.541 Y77.472 E4.57261
G1 X87.542 Y75.577 E4.64684
G1 X94.423 Y75.577 E4.91644
G1 X94.423 Y83.212 E5.21562
G1 X92.483 Y83.212 E5.29162
G1 X92.482 Y85.987 E5.40036
G1 X92.859 Y85.670 F4800.000
G1 X94.800 Y85.671 E5.46129 F900.000
G1 X94.800 Y94.800 E5.74791
G1 X75.200 Y94.800 E6.36325
G1 X75.200 Y75.200 E6.97860
G1 X81.905 Y75.200 E7.18910
G1 X81.906 Y77.094 E7.24858
G1 X84.057 Y77.094 E7.31612
G1 X84.056 Y75.200 E7.37560
G1 X85.070 Y75.200 E7.40741
G1 X85.069 Y77.094 E7.46689
G1 X87.164 Y77.094 E7.53268
G1 X87.165 Y75.200 E7.59215
G1 X94.800 Y75.200 E7.83185
G1 X94.800 Y83.590 E8.09525
G1 X92.860 Y83.589 E8.15615
G1 X92.859 Y85.610 E8.21959
G1 X92.859 Y86.070 F4800.000
G1 X92.194 Y83.971 F4800.000
G1 X84.236 Y77.761 E8.61512 F4800.000
G1 X82.350 Y77.761 F4800.000
G1 X94.134 Y89.545 E9.26812 F4800.000
G1 E7.26812 F2400.00000
G92 E0
G1 Z8.550 F4800.000
G1 X94.000 Y82.790 F4800.000
G1 X94.000 Y82.790 F4800.000
G1 X94.134 Y77.697 F4800.000
G1 Z7.550 F4800.000
G1 E2.00000 F2400.00000
G1 X92.303 Y75.866 E2.10145 F4800.000
G1 X88.575 Y75.866 E2.24754
G1 X94.134 Y80.216 E2.52413
G1 X93.436 Y82.923 E2.63365
G1 X87.830 Y77.318 E2.94427
G1 E0.94427 F2400.00000
G92 E0
G1 Z8.550 F4800.000
G1 X81.105 Y76.105 F4800.000
G1 X81.105 Y76.105 F4800.000
G1 X81.239 Y76.650 F4800.000
G1 Z7.550 F4800.000
G1 E2.00000 F2400.00000
G1 X80.455 Y75.866 E2.04345 F4800.000
G1 X75.866 Y76.530 E2.22513
G1 X94.134 Y90.733 E3.13181
G1 X92.799 Y94.134 E3.27496
G1 X75.866 Y77.201 E4.21325
G1 X75.866 Y81.788 E4.39299
G1 X91.737 Y94.134 E5.18086
G1 X86.875 Y94.134 E5.37140
G1 X75.866 Y83.125 E5.98143
G1 X75.866 Y87.047 E6.13509
G1 X84.955 Y94.134 E6.58670
G1 X80.951 Y94.134 E6.74360
G1 X75.866 Y89.049 E7.02537
G1 X75.866 Y92.305 E7.15296
G1 X78.173 Y94.134 E7.26830
G1 E5.26830 F2400.00000
G92 E0
G1 Z8.550 F4800.000
G1 X92.482 Y86.044 F4800.000
G1 Z7.850 F4800.000
G1 E2.00000 F2400.00000
G1 X94.423 Y86.044 E2.07603 F1800.000
G1 X94.423 Y94.423 E2.40432
G1 X75.577 Y94.423 E3.14276
G1 X75.577 Y75.577 E3.88119
G1 X81.694 Y75.577 E4.12088
G1 X81.695 Y77.472 E4.19513
G1 X87.352 Y77.472 E4.41676
G1 X87.352 Y75.577 E4.49100
G1 X94.423 Y75.577 E4.76804
G1 X94.423 Y83.209 E5.06708
G1 X92.484 Y83.208 E5.14306
G1 X92.482 Y85.984 E5.25181
G1 X92.860 Y85.667 F4800.000
G1 X94.800 Y85.667 E5.31272 F900.000
G1 X94.800 Y94.800 E5.59944
G1 X75.200 Y94.800 E6.21479
G1 X75.200 Y75.200 E6.83013
G1 X82.071 Y75.200 E7.04587
G1 X82.072 Y77.095 E7.10535
G1 X84.235 Y77.095 E7.17325
G1 X84.234 Y75.200 E7.23273
G1 X84.887 Y75.200 E7.25322
G1 X84.886 Y77.095 E7.31271
G1 X86.974 Y77.095 E7.37828
G1 X86.975 Y75.200 E7.43776
G1 X94.800 Y75.200 E7.68342
G1 X94.800 Y83.587 E7.94672
G1 X92.861 Y83.586 E8.00760
G1 X92.860 Y85.607 E8.07104
G1 X92.860 Y86.067 F4800.000
G1 X92.194 Y84.294 F4800.000
G1 X84.525 Y94.134 E8.55986 F4800.000
G1 X80.455 Y94.134 E8.71934
G1 X94.134 Y80.455 E9.47732
G1 X94.134 Y81.792 E9.52972
G1 X93.220 Y82.920 E9.58658
G1 E7.58658 F2400.00000
G92 E0
G1 Z8.850 F4800.000
G1 X94.000 Y86.467 F4800.000
G1 X94.000 Y86.467 F4800.000
G1 X94.134 Y86.379 F4800.000
G1 Z7.850 F4800.000
G1 E2.00000 F2400.00000
G1 X86.379 Y94.134 E2.42972 F4800.000
G1 X89.784 Y94.134 E2.56312
G1 X94.134 Y88.575 E2.83971
G1 X94.134 Y92.303 E2.98579
G1 X92.303 Y94.134 E3.08725
G1 E1.08725 F2400.00000
G92 E0
G1 Z8.850 F4800.000
G1 X86.743 Y77.761 F4800.000
G1 Z7.850 F4800.000
G1 E2.00000 F2400.00000
G1 X75.866 Y91.737 E2.69393 F4800.000
G1 X75.866 Y86.875 E2.88447
G1 X84.980 Y77.761 E3.38951
G1 X81.484 Y77.761 E3.52649
G1 X75.866 Y84.955 E3.88416
G1 X75.866 Y80.951 E4.04106
G1 X80.951 Y75.866 E4.32283
G1 X77.695 Y75.866 E4.45041
G1 X75.866 Y78.173 E4.56576
G1 E2.56576 F2400.00000
G92 E0
G1 Z8.850 F4800.000
G1 X76.000 Y76.000 F4800.000
G1 X78.697 Y78.697 F4800.000
G1 X81.078 Y76.194 F4800.000
G1 X81.272 Y76.194 F4800.000
G1 X87.641 Y76.551 F4800.000
G1 Z7.850 F4800.000
G1 E2.00000 F2400.00000
G1 X88.212 Y75.866 E2.03491 F4800.000
G1 X92.799 Y75.866 E2.21465
G1 X75.866 Y92.799 E3.15295
G1 X79.267 Y94.134 E3.29609
G1 X93.470 Y75.866 E4.20277
G1 E2.20277 F2400.00000
G92 E0
G1 Z8.850 F4800.000
G1 X87.775 Y76.000 F4800.000
G1 X87.775 Y76.000 F4800.000
G1 X84.560 Y75.389 F4800.000
G1 Z7.850 F4800.000
G1 E2.00000 F2400.00000
G1 X84.560 Y77.283 E2.07424 F2400.000
G1 E0.07424 F2400.00000
G92 E0
G1 Z8.850 F4800.000
G1 X92.483 Y86.040 F4800.000
G1 Z8.150 F4800.000
G1 E2.00000 F2400.00000
G1 X94.423 Y86.041 E2.07601 F1800.000
G1 X94.423 Y94.423 E2.40443
G1 X75.577 Y94.423 E3.14286
G1 X75.577 Y75.577 E3.88130
G1 X81.861 Y75.577 E4.12752
G1 X81.862 Y77.472 E4.20177
G1 X87.162 Y77.472 E4.40944
G1 X87.163 Y75.577 E4.48369
G1 X94.423 Y75.577 E4.76817
G1 X94.423 Y83.206 E5.06709
G1 X92.484 Y83.205 E5.14305
G1 X92.483 Y85.980 E5.25179
G1 X92.860 Y85.663 F4800.000
G1 X94.800 Y85.664 E5.31269 F900.000
G1 X94.800 Y94.800 E5.59951
G1 X75.200 Y94.800 E6.21486
G1 X75.200 Y75.200 E6.83020
G1 X82.238 Y75.200 E7.05116
G1 X82.239 Y77.095 E7.11066
G1 X84.413 Y77.095 E7.17890
G1 X84.412 Y75.200 E7.23840
G1 X84.704 Y75.200 E7.24757
G1 X84.703 Y77.095 E7.30706
G1 X86.785 Y77.095 E7.37242
G1 X86.786 Y75.200 E7.43191
G1 X94.800 Y75.200 E7.68352
G1 X94.800 Y83.583 E7.94672
G1 X92.861 Y83.583 E8.00759
G1 X92.860 Y85.603 E8.07103
G1 X92.860 Y86.063 F4800.000
G1 X92.195 Y83.971 F4800.000
G1 X84.237 Y77.761 E8.46657 F4800.000
G1 X82.350 Y77.761 F4800.000
G1 X94.134 Y89.545 E9.11954 F4800.000
G1 E7.11954 F2400.00000
G92 E0
G1 Z9.150 F4800.000
G1 X94.000 Y82.783 F4800.000
G1 X94.000 Y82.783 F4800.000
G1 X94.134 Y77.697 F4800.000
G1 Z8.150 F4800.000
G1 E2.00000 F2400.00000
G1 X92.303 Y75.866 E2.10145 F4800.000
G1 X88.575 Y75.866 E2.24754
G1 X94.134 Y80.216 E2.52413
G1 X93.429 Y82.916 E2.63347
G1 X87.451 Y76.938 E2.96473
G1 E0.96473 F2400.00000
G92 E0
G1 Z9.150 F4800.000
G1 X81.572 Y76.984 F4800.000
G1 Z8.150 F4800.000
G1 E2.00000 F2400.00000
G1 X80.455 Y75.866 E2.06191 F4800.000
G1 X75.866 Y76.530 E2.24359
G1 X94.134 Y90.733 E3.15028
G1 X92.799 Y94.134 E3.29342
G1 X75.866 Y77.201 E4.23171
G1 X75.866 Y81.788 E4.41145
G1 X91.737 Y94.134 E5.19933
G1 X86.875 Y94.134 E5.38986
G1 X75.866 Y83.125 E5.99989
G1 X75.866 Y87.047 E6.15356
G1 X84.955 Y94.134 E6.60517
G1 X80.951 Y94.134 E6.76207
G1 X75.866 Y89.049 E7.04383
G1 X75.866 Y92.305 E7.17142
G1 X78.173 Y94.134 E7.28677
G1 E5.28677 F2400.00000
G92 E0
G1 Z9.150 F4800.000
G1 X92.483 Y86.037 F4800.000
G1 Z8.450 F4800.000
G1 E2.00000 F2400.00000
G1 X94.423 Y86.038 E2.07599 F1800.000
G1 X94.423 Y94.423 E2.40454
G1 X75.577 Y94.423 E3.14297
G1 X75.577 Y75.577 E3.88141
G1 X82.027 Y75.577 E4.13415
G1 X82.028 Y77.472 E4.20841
G1 X86.972 Y77.472 E4.40213
G1 X86.973 Y75.577 E4.47639
G1 X94.423 Y75.577 E4.76829
G1 X94.423 Y83.203 E5.06709
G1 X92.485 Y83.202 E5.14303
G1 X92.483 Y85.977 E5.25178
G1 X92.861 Y85.660 F4800.000
G1 X94.800 Y85.661 E5.31266 F900.000
G1 X94.800 Y94.800 E5.59958
G1 X75.200 Y94.800 E6.21493
G1 X75.200 Y75.200 E6.83028
G1 X82.405 Y75.200 E7.05646
G1 X82.405 Y77.095 E7.11596
G1 X86.595 Y77.095 E7.24750
G1 X86.596 Y75.200 E7.30700
G1 X94.800 Y75.200 E7.56456
G1 X94.800 Y83.580 E7.82766
G1 X92.862 Y83.579 E7.88851
G1 X92.861 Y85.600 E7.95195
G1 X92.861 Y86.060 F4800.000
G1 E5.95195 F2400.00000
G92 E0
G1 Z9.450 F4800.000
G1 X84.555 Y76.895 F4800.000
G1 Z8.450 F4800.000
G1 E2.00000 F2400.00000
G1 X84.555 Y75.000 E2.07426 F900.000
G1 E0.07426 F2400.00000
G92 E0
G1 Z9.450 F4800.000
G1 X87.396 Y76.000 F4800.000
G1 X87.396 Y76.000 F4800.000
G1 X84.980 Y77.762 F4800.000
G1 Z8.450 F4800.000
G1 E2.00000 F2400.00000
G1 X75.866 Y86.875 E2.50501 F4800.000
G1 X75.866 Y91.737 E2.69554
G1 X86.742 Y77.762 E3.38945
G1 X87.261 Y77.040 F4800.000
G1 X88.212 Y75.866 E3.44863 F4800.000
G1 X92.799 Y75.866 E3.62837
G1 X75.866 Y92.799 E4.56667
G1 X79.267 Y94.134 E4.70981
G1 X93.470 Y75.866 E5.61649
G1 E3.61649 F2400.00000
G92 E0
G1 Z9.450 F4800.000
G1 X93.225 Y82.913 F4800.000
G1 Z8.450 F4800.000
G1 E2.00000 F2400.00000
G1 X94.134 Y81.792 E2.05654 F4800.000
G1 X94.134 Y80.455 E2.10894
G1 X80.455 Y94.134 E2.86692
G1 X84.525 Y94.134 E3.02639
G1 X92.195 Y84.293 E3.51527
G1 E1.51527 F2400.00000
G92 E0
G1 Z9.450 F4800.000
G1 X94.000 Y86.461 F4800.000
G1 X94.000 Y86.461 F4800.000
G1 X94.134 Y86.379 F4800.000
G1 Z8.450 F4800.000
G1 E2.00000 F2400.00000
G1 X86.379 Y94.134 E2.42972 F4800.000
G1 X89.784 Y94.134 E2.56312
G1 X94.134 Y88.575 E2.83971
G1 X94.134 Y92.303 E2.98579
G1 X92.303 Y94.134 E3.08725
G1 E1.08725 F2400.00000
G92 E0
G1 Z9.450 F4800.000
G1 X81.739 Y77.432 F4800.000
G1 Z8.450 F4800.000
G1 E2.00000 F2400.00000
G1 X75.866 Y84.955 E2.37398 F4800.000
G1 X75.866 Y80.951 E2.53088
G1 X80.951 Y75.866 E2.81265
G1 X77.695 Y75.866 E2.94024
G1 X75.866 Y78.173 E3.05558
M106 S237.15
G1 E1.05558 F2400.00000
G92 E0
G1 Z9.450 F4800.000
G1 X92.484 Y86.034 F4800.000
G1 Z8.750 F4800.000
G1 E2.00000 F2400.00000
G1 X94.423 Y86.035 E2.07597 F1800.000
G1 X94.423 Y94.423 E2.40465
G1 X75.577 Y94.423 E3.14308
G1 X75.577 Y75.577 E3.88152
G1 X82.194 Y75.577 E4.14079
G1 X82.195 Y77.473 E4.21506
G1 X86.782 Y77.473 E4.39482
G1 X86.783 Y75.577 E4.46909
G1 X94.423 Y75.577 E4.76842
G1 X94.423 Y83.199 E5.06709
G1 X92.485 Y83.199 E5.14301
G1 X92.484 Y85.974 E5.25176
G1 X92.861 Y85.657 F4800.000
G1 X94.800 Y85.658 E5.31263 F900.000
G1 X94.800 Y94.800 E5.59965
G1 X75.200 Y94.800 E6.21500
G1 X75.200 Y75.200 E6.83035
G1 X82.571 Y75.200 E7.06176
G1 X82.572 Y77.095 E7.12127
G1 X86.405 Y77.095 E7.24162
G1 X86.406 Y75.200 E7.30113
G1 X94.800 Y75.200 E7.56465
G1 X94.800 Y83.577 E7.82764
G1 X92.862 Y83.576 E7.88848
G1 X92.861 Y85.597 E7.95192
G1 X92.861 Y86.057 F4800.000
G1 X92.196 Y83.972 F4800.000
G1 X84.237 Y77.762 E8.34748 F4800.000
G1 X82.351 Y77.762 F4800.000
G1 X94.134 Y89.545 E9.00043 F4800.000
G1 E7.00043 F2400.00000
G92 E0
G1 Z9.750 F4800.000
G1 X94.000 Y82.777 F4800.000
G1 X94.000 Y82.777 F4800.000
G1 X94.134 Y77.697 F4800.000
G1 Z8.750 F4800.000
G1 E2.00000 F2400.00000
G1 X92.303 Y75.866 E2.10145 F4800.000
G1 X88.575 Y75.866 E2.24754
G1 X94.134 Y80.216 E2.52413
G1 X93.423 Y82.910 E2.63329
G1 X87.072 Y76.559 E2.98520
G1 E0.98520 F2400.00000
G92 E0
G1 Z9.750 F4800.000
G1 X81.772 Y76.462 F4800.000
G1 X81.772 Y76.462 F4800.000
G1 X81.906 Y77.317 F4800.000
G1 Z8.750 F4800.000
G1 E2.00000 F2400.00000
G1 X80.455 Y75.866 E2.08038 F4800.000
G1 X75.866 Y76.530 E2.26206
G1 X94.134 Y90.733 E3.16874
G1 X92.799 Y94.134 E3.31189
G1 X75.866 Y77.201 E4.25018
G1 X75.866 Y81.788 E4.42992
G1 X91.737 Y94.134 E5.21779
G1 X86.875 Y94.134 E5.40833
G1 X75.866 Y83.125 E6.01836
G1 X75.866 Y87.047 E6.17202
G1 X84.955 Y94.134 E6.62363
G1 X80.951 Y94.134 E6.78053
G1 X75.866 Y89.049 E7.06230
G1 X75.866 Y92.305 E7.18989
G1 X78.173 Y94.134 E7.30523
G1 E5.30523 F2400.00000
G92 E0
G1 Z9.750 F4800.000
G1 X92.484 Y86.031 F4800.000
G1 Z9.050 F4800.000
G1 E2.00000 F2400.00000
G1 X94.423 Y86.031 E2.07596 F1800.000
G1 X94.423 Y94.423 E2.40476
G1 X75.577 Y94.423 E3.14319
G1 X75.577 Y75.577 E3.88163
G1 X82.361 Y75.577 E4.14742
G1 X82.361 Y77.473 E4.22170
G1 X86.593 Y77.473 E4.38750
G1 X86.594 Y75.577 E4.46178
G1 X94.423 Y75.577 E4.76855
G1 X94.423 Y83.196 E5.06709
G1 X92.486 Y83.195 E5.14300
G1 X92.484 Y85.971 E5.25174
G1 X92.862 Y85.654 F4800.000
G1 X94.800 Y85.654 E5.31260 F900.000
G1 X94.800 Y94.800 E5.59972
G1 X75.200 Y94.800 E6.21507
G1 X75.200 Y75.200 E6.83042
G1 X82.738 Y75.200 E7.06706
G1 X82.738 Y77.096 E7.12658
G1 X86.216 Y77.096 E7.23575
G1 X86.217 Y75.200 E7.29526
G1 X94.800 Y75.200 E7.56474
G1 X94.800 Y83.574 E7.82763
G1 X92.863 Y83.573 E7.88845
G1 X92.862 Y85.594 E7.95189
G1 X92.862 Y86.054 F4800.000
G1 X92.196 Y84.292 F4800.000
G1 X84.525 Y94.134 E8.44083 F4800.000
G1 X80.455 Y94.134 E8.60031
G1 X94.134 Y80.455 E9.35829
G1 X94.134 Y81.792 E9.41069
G1 X93.230 Y82.907 E9.46691
G1 E7.46691 F2400.00000
G92 E0
G1 Z10.050 F4800.000
G1 X94.000 Y86.454 F4800.000
G1 X94.000 Y86.454 F4800.000
G1 X94.134 Y86.379 F4800.000
G1 Z9.050 F4800.000
G1 E2.00000 F2400.00000
G1 X86.379 Y94.134 E2.42972 F4800.000
G1 X89.784 Y94.134 E2.56312
G1 X94.134 Y88.575 E2.83971
G1 X94.134 Y92.303 E2.98579
G1 X92.303 Y94.134 E3.08725
G1 E1.08725 F2400.00000
G92 E0
G1 Z10.050 F4800.000
G1 X86.742 Y77.762 F4800.000
G1 Z9.050 F4800.000
G1 E2.00000 F2400.00000
G1 X75.866 Y91.737 E2.69388 F4800.000
G1 X75.866 Y86.875 E2.88442
G1 X84.979 Y77.762 E3.38940
G1 X86.882 Y77.530 F4800.000
G1 X88.212 Y75.866 E3.47285 F4800.000
G1 X92.799 Y75.866 E3.65259
G1 X75.866 Y92.799 E4.59089
G1 X79.267 Y94.134 E4.73403
G1 X93.470 Y75.866 E5.64072
G1 E3.64072 F2400.00000
G92 E0
G1 Z10.050 F4800.000
G1 X87.016 Y76.000 F4800.000
G1 X87.016 Y76.000 F4800.000
G1 X82.072 Y77.003 F4800.000
G1 Z9.050 F4800.000
G1 E2.00000 F2400.00000
G1 X75.866 Y84.955 E2.39526 F4800.000
G1 X75.866 Y80.951 E2.55217
G1 X80.951 Y75.866 E2.83393
G1 X77.695 Y75.866 E2.96152
G1 X75.866 Y78.173 E3.07687
G1 E1.07687 F2400.00000
G92 E0
G1 Z10.050 F4800.000
G1 X92.485 Y86.027 F4800.000
G1 Z9.350 F4800.000
G1 E2.00000 F2400.00000
G1 X94.423 Y86.028 E2.07594 F1800.000
G1 X94.423 Y94.423 E2.40487
G1 X75.577 Y94.423 E3.14330
G1 X75.577 Y75.577 E3.88174
G1 X82.527 Y75.577 E4.15406
G1 X82.528 Y77.473 E4.22835
G1 X86.403 Y77.473 E4.38019
G1 X86.404 Y75.577 E4.45448
G1 X94.423 Y75.577 E4.76868
G1 X94.423 Y83.193 E5.06709
G1 X92.486 Y83.192 E5.14298
G1 X92.485 Y85.967 E5.25173
G1 X92.862 Y85.650 F4800.000
G1 X94.800 Y85.651 E5.31256 F900.000
G1 X94.800 Y94.800 E5.59979
G1 X75.200 Y94.800 E6.21514
G1 X75.200 Y75.200 E6.83049
G1 X82.904 Y75.200 E7.07236
G1 X82.905 Y77.096 E7.13188
G1 X86.026 Y77.096 E7.22987
G1 X86.027 Y75.200 E7.28939
G1 X94.800 Y75.200 E7.56482
G1 X94.800 Y83.570 E7.82761
G1 X92.863 Y83.570 E7.88842
G1 X92.862 Y85.590 E7.95186
G1 X92.862 Y86.050 F4800.000
G1 X92.197 Y83.973 F4800.000
G1 X84.238 Y77.762 E8.34743 F4800.000
G1 X82.351 Y77.762 F4800.000
G1 X94.134 Y89.545 E9.00035 F4800.000
G1 E7.00035 F2400.00000
G92 E0
G1 Z10.350 F4800.000
G1 X94.000 Y82.770 F4800.000
G1 X94.000 Y82.770 F4800.000
G1 X94.134 Y77.697 F4800.000
G1 Z9.350 F4800.000
G1 E2.00000 F2400.00000
G1 X92.303 Y75.866 E2.10145 F4800.000
G1 X88.575 Y75.866 E2.24754
G1 X94.134 Y80.216 E2.52413
G1 X93.416 Y82.903 E2.63310
G1 X86.693 Y76.180 E3.00567
G1 E1.00567 F2400.00000
G92 E0
G1 Z10.350 F4800.000
G1 X82.105 Y76.000 F4800.000
G1 X82.105 Y76.000 F4800.000
G1 X82.238 Y76.252 F4800.000
G1 Z9.350 F4800.000
G1 E2.00000 F2400.00000
G1 X81.792 Y75.866 E2.02309 F4800.000
G1 X80.455 Y75.866 E2.07549
G1 X82.239 Y77.650 E2.17434
G1 E0.17434 F2400.00000
G92 E0
G1 Z10.350 F4800.000
G1 X75.866 Y76.530 F4800.000
G1 Z9.350 F4800.000
G1 E2.00000 F2400.00000
G1 X94.134 Y90.733 E2.90668 F4800.000
G1 X92.799 Y94.134 E3.04983
G1 X75.866 Y77.201 E3.98812
G1 X75.866 Y81.788 E4.16786
G1 X91.737 Y94.134 E4.95574
G1 X86.875 Y94.134 E5.14627
G1 X75.866 Y83.125 E5.75630
G1 X75.866 Y87.047 E5.90996
G1 X84.955 Y94.134 E6.36157
G1 X80.951 Y94.134 E6.51848
G1 X75.866 Y89.049 E6.80024
G1 X75.866 Y92.305 E6.92783
G1 X78.173 Y94.134 E7.04318
G1 E5.04318 F2400.00000
G92 E0
G1 Z10.350 F4800.000
G1 X92.485 Y86.178 F4800.000
G1 Z9.650 F4800.000
G1 E2.00000 F2400.00000
G1 X94.423 Y86.180 E2.07592 F1800.000
G1 X94.423 Y94.423 E2.39888
G1 X75.577 Y94.423 E3.13732
G1 X75.577 Y75.577 E3.87576
G1 X82.694 Y75.577 E4.15460
G1 X82.694 Y77.473 E4.22890
G1 X86.213 Y77.473 E4.36679
G1 X86.214 Y75.577 E4.44109
G1 X94.423 Y75.577 E4.76272
G1 X94.423 Y83.021 E5.05439
G1 X92.487 Y83.022 E5.13025
G1 X92.485 Y86.118 E5.25157
G1 X92.863 Y85.801 F4800.000
G1 X94.800 Y85.804 E5.31240 F900.000
G1 X94.800 Y94.800 E5.59484
G1 X75.200 Y94.800 E6.21018
G1 X75.200 Y75.200 E6.82553
G1 X83.071 Y75.200 E7.07263
G1 X83.072 Y77.096 E7.13216
G1 X85.836 Y77.096 E7.21897
G1 X85.837 Y75.200 E7.27850
G1 X94.800 Y75.200 E7.55988
G1 X94.800 Y83.398 E7.81726
G1 X92.864 Y83.399 E7.87805
G1 X92.863 Y85.741 E7.95159
G1 X92.862 Y86.201 F4800.000
G1 X94.044 Y86.469 F4800.000
G1 X86.379 Y94.134 E8.37632 F4800.000
G1 X89.784 Y94.134 E8.50973
G1 X94.134 Y88.575 E8.78632
G1 X94.134 Y92.303 E8.93240
G1 X92.303 Y94.134 E9.03385
G1 E7.03385 F2400.00000
G92 E0
G1 Z10.650 F4800.000
G1 X92.197 Y84.291 F4800.000
G1 Z9.650 F4800.000
G1 E2.00000 F2400.00000
G1 X84.525 Y94.134 E2.48900 F4800.000
G1 X80.455 Y94.134 E2.64848
G1 X94.134 Y80.455 E3.40646
G1 X94.134 Y81.792 E3.45886
G1 X93.365 Y82.732 E3.50643
G1 E1.50643 F2400.00000
G92 E0
G1 Z10.650 F4800.000
G1 X93.470 Y75.866 F4800.000
G1 Z9.650 F4800.000
G1 E2.00000 F2400.00000
G1 X79.267 Y94.134 E2.90668 F4800.000
G1 X75.866 Y92.799 E3.04983
G1 X92.799 Y75.866 E3.98812
G1 X88.212 Y75.866 E4.16786
G1 X75.866 Y91.737 E4.95574
G1 X75.866 Y86.875 E5.14627
G1 X84.979 Y77.763 E5.65123
G1 E3.65123 F2400.00000
G92 E0
G1 Z10.650 F4800.000
G1 X86.503 Y76.238 F4800.000
G1 Z9.650 F4800.000
G1 E2.00000 F2400.00000
G1 X86.875 Y75.866 E2.02060 F4800.000
G1 E0.02060 F2400.00000
G92 E0
G1 Z10.650 F4800.000
G1 X86.637 Y76.000 F4800.000
G1 X86.637 Y76.000 F4800.000
G1 X82.405 Y76.573 F4800.000
G1 Z9.650 F4800.000
G1 E2.00000 F2400.00000
G1 X75.866 Y84.955 E2.41655 F4800.000
G1 X75.866 Y80.951 E2.57345
G1 X80.951 Y75.866 E2.85522
G1 X77.695 Y75.866 E2.98281
G1 X75.866 Y78.173 E3.09815
G1 E1.09815 F2400.00000
G92 E0
G1 Z10.650 F4800.000
G1 X92.486 Y86.348 F4800.000
G1 Z9.950 F4800.000
G1 E2.00000 F2400.00000
G1 X94.423 Y86.350 E2.07591 F1800.000
G1 X94.423 Y94.423 E2.39221
G1 X75.577 Y94.423 E3.13064
G1 X75.577 Y75.577 E3.86908
G1 X82.860 Y75.577 E4.15445
G1 X82.861 Y77.474 E4.22876
G1 X86.024 Y77.474 E4.35269
G1 X86.025 Y75.577 E4.42700
G1 X94.423 Y75.577 E4.75606
G1 X94.423 Y82.841 E5.04070
G1 X92.487 Y82.842 E5.11655
G1 X92.486 Y86.288 E5.25156
G1 X92.863 Y85.971 F4800.000
G1 X94.800 Y85.974 E5.31237 F900.000
G1 X94.800 Y94.800 E5.58947
G1 X75.200 Y94.800 E6.20482
G1 X75.200 Y75.200 E6.82017
G1 X83.237 Y75.200 E7.07250
G1 X83.238 Y77.096 E7.13204
G1 X85.647 Y77.096 E7.20765
G1 X85.648 Y75.200 E7.26719
G1 X94.800 Y75.200 E7.55453
G1 X94.800 Y83.219 E7.80628
G1 X92.864 Y83.219 E7.86705
G1 X92.863 Y85.911 E7.95156
G1 X92.863 Y86.371 F4800.000
G1 E5.95156 F2400.00000
G92 E0
G1 Z10.950 F4800.000
G1 X92.198 Y83.974 F4800.000
G1 Z9.950 F4800.000
G1 E2.00000 F2400.00000
G1 X84.238 Y77.763 E2.39558 F4800.000
G1 E0.39558 F2400.00000
G92 E0
G1 Z10.950 F4800.000
G1 X82.571 Y76.510 F4800.000
G1 Z9.950 F4800.000
G1 E2.00000 F2400.00000
G1 X81.792 Y75.866 E2.03960 F4800.000
G1 X80.455 Y75.866 E2.09200
G1 X94.134 Y89.545 E2.84998
G1 E0.84998 F2400.00000
G92 E0
G1 Z10.950 F4800.000
G1 X94.000 Y82.419 F4800.000
G1 X94.000 Y82.419 F4800.000
G1 X94.134 Y77.697 F4800.000
G1 Z9.950 F4800.000
G1 E2.00000 F2400.00000
G1 X92.303 Y75.866 E2.10145 F4800.000
G1 X88.575 Y75.866 E2.24754
G1 X94.134 Y80.216 E2.52413
G1 X93.066 Y82.553 E2.62480
G1 X86.379 Y75.866 E2.99534
G1 E0.99534 F2400.00000
G92 E0
G1 Z10.950 F4800.000
G1 X82.438 Y76.000 F4800.000
G1 X81.619 Y76.819 F4800.000
G1 X79.393 Y79.393 F4800.000
G1 X76.000 Y76.000 F4800.000
G1 X75.866 Y76.530 F4800.000
G1 Z9.950 F4800.000
G1 E2.00000 F2400.00000
G1 X94.134 Y90.733 E2.90668 F4800.000
G1 X92.799 Y94.134 E3.04983
G1 X75.866 Y77.201 E3.98812
G1 X75.866 Y81.788 E4.16786
G1 X91.737 Y94.134 E4.95574
G1 X86.875 Y94.134 E5.14627
G1 X75.866 Y83.125 E5.75630
G1 X75.866 Y87.047 E5.90996
G1 X84.955 Y94.134 E6.36157
G1 X80.951 Y94.134 E6.51848
G1 X75.866 Y89.049 E6.80024
G1 X75.866 Y92.305 E6.92783
G1 X78.173 Y94.134 E7.04318
G1 E5.04318 F2400.00000
G92 E0
G1 Z10.950 F4800.000
G1 X92.486 Y86.518 F4800.000
G1 Z10.250 F4800.000
G1 E2.00000 F2400.00000
G1 X94.423 Y86.520 E2.07589 F1800.000
G1 X94.423 Y94.423 E2.38553
G1 X75.577 Y94.423 E3.12397
G1 X75.577 Y75.578 E3.86238
G1 X82.990 Y75.587 E4.15283
G1 X82.989 Y77.474 E4.22677
G1 X85.936 Y77.474 E4.34224
G1 X85.935 Y75.577 E4.41656
G1 X94.423 Y75.577 E4.74915
G1 X94.423 Y82.662 E5.02675
G1 X92.488 Y82.663 E5.10258
G1 X92.486 Y86.458 E5.25128
G1 X92.863 Y86.141 F4800.000
G1 X94.800 Y86.144 E5.31208 F900.000
G1 X94.800 Y94.800 E5.58385
G1 X75.200 Y94.800 E6.19919
G1 X75.200 Y75.200 E6.81453
G1 X83.367 Y75.210 E7.07094
G1 X83.366 Y77.097 E7.13017
G1 X85.559 Y77.097 E7.19900
G1 X85.558 Y75.200 E7.25854
G1 X94.800 Y75.200 E7.54871
G1 X94.800 Y83.039 E7.79482
G1 X92.865 Y83.040 E7.85558
G1 X92.863 Y86.081 E7.95106
G1 X92.863 Y86.541 F4800.000
G1 X93.704 Y86.808 F4800.000
G1 X86.379 Y94.134 E8.35698 F4800.000
G1 X89.784 Y94.134 E8.49038
G1 X94.134 Y88.575 E8.76697
G1 X94.134 Y92.303 E8.91306
G1 X92.303 Y94.134 E9.01451
G1 E7.01451 F2400.00000
G92 E0
G1 Z11.250 F4800.000
G1 X92.198 Y84.289 F4800.000
G1 Z10.250 F4800.000
G1 E2.00000 F2400.00000
G1 X84.525 Y94.134 E2.48906 F4800.000
G1 X80.455 Y94.134 E2.64854
G1 X92.199 Y82.390 E3.29929
G1 X92.215 Y82.374 F4800.000
G1 X94.134 Y80.455 E3.40562 F4800.000
G1 X94.134 Y81.792 E3.45802
G1 X93.643 Y82.373 E3.48780
G1 E1.48780 F2400.00000
G92 E0
G1 Z11.250 F4800.000
G1 X93.470 Y75.866 F4800.000
G1 Z10.250 F4800.000
G1 E2.00000 F2400.00000
G1 X79.267 Y94.134 E2.90668 F4800.000
G1 X75.866 Y92.799 E3.04983
G1 X92.799 Y75.866 E3.98812
G1 X88.212 Y75.866 E4.16786
G1 X75.866 Y91.737 E4.95574
G1 X75.866 Y86.875 E5.14627
G1 X84.978 Y77.763 E5.65120
G1 X86.225 Y76.517 F4800.000
G1 X86.875 Y75.866 E5.68724 F4800.000
G1 E3.68724 F2400.00000
G92 E0
G1 Z11.250 F4800.000
G1 X86.358 Y76.000 F4800.000
G1 X86.358 Y76.000 F4800.000
G1 X82.700 Y76.192 F4800.000
G1 Z10.250 F4800.000
G1 E2.00000 F2400.00000
G1 X75.866 Y84.955 E2.43544 F4800.000
G1 X75.866 Y80.951 E2.59234
G1 X80.944 Y75.873 E2.87371
G1 X77.692 Y75.869 E3.00112
G1 X75.866 Y78.173 E3.11631
G1 E1.11631 F2400.00000
G92 E0
G1 Z11.250 F4800.000
G1 X92.486 Y86.688 F4800.000
G1 Z10.550 F4800.000
G1 E2.00000 F2400.00000
G1 X94.423 Y86.690 E2.07588 F1800.000
G1 X94.423 Y94.423 E2.37886
G1 X75.577 Y94.423 E3.11729
G1 X75.577 Y75.577 E3.85573
G1 X82.821 Y75.577 E4.13957
G1 X82.820 Y77.474 E4.21390
G1 X86.128 Y77.474 E4.34350
G1 X86.127 Y75.577 E4.41783
G1 X94.423 Y75.577 E4.74290
G1 X94.423 Y82.483 E5.01348
G1 X92.488 Y82.484 E5.08928
G1 X92.486 Y86.628 E5.25167
G1 X92.864 Y86.311 F4800.000
G1 X94.800 Y86.314 E5.31246 F900.000
G1 X94.800 Y94.800 E5.57889
G1 X75.200 Y94.800 E6.19424
G1 X75.200 Y75.200 E6.80958
G1 X83.199 Y75.200 E7.06070
G1 X83.198 Y77.097 E7.12025
G1 X85.750 Y77.097 E7.20040
G1 X85.749 Y75.200 E7.25995
G1 X94.800 Y75.200 E7.54410
G1 X94.800 Y82.860 E7.78458
G1 X92.865 Y82.861 E7.84532
G1 X92.864 Y86.251 E7.95176
G1 X92.863 Y86.711 F4800.000
G1 E5.95176 F2400.00000
G92 E0
G1 Z11.550 F4800.000
G1 X92.198 Y83.974 F4800.000
G1 Z10.550 F4800.000
G1 E2.00000 F2400.00000
G1 X84.239 Y77.763 E2.39560 F4800.000
G1 E0.39560 F2400.00000
G92 E0
G1 Z11.550 F4800.000
G1 X82.532 Y76.479 F4800.000
G1 Z10.550 F4800.000
G1 E2.00000 F2400.00000
G1 X81.792 Y75.866 E2.03763 F4800.000
G1 X80.455 Y75.866 E2.09003
G1 X94.134 Y89.545 E2.84801
G1 E0.84801 F2400.00000
G92 E0
G1 Z11.550 F4800.000
G1 X94.000 Y82.060 F4800.000
G1 X94.000 Y82.060 F4800.000
G1 X94.134 Y77.697 F4800.000
G1 Z10.550 F4800.000
G1 E2.00000 F2400.00000
G1 X92.303 Y75.866 E2.10145 F4800.000
G1 X88.575 Y75.866 E2.24754
G1 X94.134 Y80.216 E2.52413
G1 X92.707 Y82.194 E2.61969
G1 X86.416 Y75.903 E2.96831
G1 E0.96831 F2400.00000
G92 E0
G1 Z11.550 F4800.000
G1 X82.398 Y76.000 F4800.000
G1 X80.501 Y77.896 F4800.000
G1 X79.368 Y79.368 F4800.000
G1 X76.000 Y76.000 F4800.000
G1 X75.866 Y76.530 F4800.000
G1 Z10.550 F4800.000
G1 E2.00000 F2400.00000
G1 X94.134 Y90.733 E2.90668 F4800.000
G1 X92.799 Y94.134 E3.04983
G1 X75.866 Y77.201 E3.98812
G1 X75.866 Y81.788 E4.16786
G1 X91.737 Y94.134 E4.95574
G1 X86.875 Y94.134 E5.14627
G1 X75.866 Y83.125 E5.75630
G1 X75.866 Y87.047 E5.90996
G1 X84.955 Y94.134 E6.36157
G1 X80.951 Y94.134 E6.51848
G1 X75.866 Y89.049 E6.80024
G1 X75.866 Y92.305 E6.92783
G1 X78.173 Y94.134 E7.04318
G1 E5.04318 F2400.00000
G92 E0
G1 Z11.550 F4800.000
G1 X92.487 Y86.858 F4800.000
G1 Z10.850 F4800.000
G1 E2.00000 F2400.00000
G1 X94.423 Y86.860 E2.07586 F1800.000
G1 X94.423 Y94.423 E2.37218
G1 X75.577 Y94.423 E3.11062
G1 X75.577 Y75.577 E3.84905
G1 X82.652 Y75.577 E4.12629
G1 X82.652 Y77.474 E4.20062
G1 X86.319 Y77.474 E4.34435
G1 X86.318 Y75.577 E4.41869
G1 X94.423 Y75.577 E4.73624
G1 X94.423 Y82.303 E4.99979
G1 X92.489 Y82.304 E5.07557
G1 X92.487 Y86.798 E5.25165
G1 X92.864 Y86.481 F4800.000
G1 X94.800 Y86.484 E5.31243 F900.000
G1 X94.800 Y94.800 E5.57353
G1 X75.200 Y94.800 E6.18887
G1 X75.200 Y75.200 E6.80422
G1 X83.030 Y75.200 E7.05004
G1 X83.029 Y77.097 E7.10960
G1 X85.942 Y77.097 E7.20106
G1 X85.941 Y75.200 E7.26062
G1 X94.800 Y75.200 E7.53875
G1 X94.800 Y82.680 E7.77360
G1 X92.866 Y82.681 E7.83432
G1 X92.864 Y86.421 E7.95173
G1 X92.864 Y86.881 F4800.000
G1 X93.365 Y87.148 F4800.000
G1 X86.379 Y94.134 E8.33884 F4800.000
G1 X89.784 Y94.134 E8.47225
G1 X94.134 Y88.575 E8.74883
G1 X94.134 Y92.303 E8.89492
G1 X92.303 Y94.134 E8.99637
G1 E6.99637 F2400.00000
G92 E0
G1 Z11.850 F4800.000
G1 X92.199 Y84.288 F4800.000
G1 Z10.850 F4800.000
G1 E2.00000 F2400.00000
G1 X84.525 Y94.134 E2.48912 F4800.000
G1 X80.455 Y94.134 E2.64860
G1 X92.200 Y82.389 E3.29940
G1 X92.574 Y82.015 F4800.000
G1 X94.134 Y80.455 E3.38583 F4800.000
G1 X94.134 Y81.792 E3.43823
G1 X93.922 Y82.014 E3.45026
G1 E1.45026 F2400.00000
G92 E0
G1 Z11.850 F4800.000
G1 X93.470 Y75.866 F4800.000
G1 Z10.850 F4800.000
G1 E2.00000 F2400.00000
G1 X79.267 Y94.134 E2.90668 F4800.000
G1 X75.866 Y92.799 E3.04983
G1 X92.799 Y75.866 E3.98812
G1 X88.212 Y75.866 E4.16786
G1 X86.609 Y77.882 E4.26878
G1 X86.741 Y77.764 F4800.000
G1 X75.866 Y91.737 E4.96259 F4800.000
G1 X75.866 Y86.875 E5.15312
G1 X84.978 Y77.764 E5.65802
G1 E3.65802 F2400.00000
G92 E0
G1 Z11.850 F4800.000
G1 X86.608 Y76.133 F4800.000
G1 Z10.850 F4800.000
G1 E2.00000 F2400.00000
G1 X86.875 Y75.866 E2.01480 F4800.000
G1 E0.01480 F2400.00000
G92 E0
G1 Z11.850 F4800.000
G1 X86.741 Y76.000 F4800.000
G1 X86.741 Y76.000 F4800.000
G1 X82.363 Y76.628 F4800.000
G1 Z10.850 F4800.000
G1 E2.00000 F2400.00000
G1 X75.866 Y84.955 E2.41385 F4800.000
G1 X75.866 Y80.951 E2.57075
G1 X80.951 Y75.866 E2.85252
G1 X77.695 Y75.866 E2.98011
G1 X75.866 Y78.173 E3.09545
G1 E1.09545 F2400.00000
G92 E0
G1 Z11.850 F4800.000
G1 X92.487 Y87.028 F4800.000
G1 Z11.150 F4800.000
G1 E2.00000 F2400.00000
G1 X94.423 Y87.030 E2.07585 F1800.000
G1 X94.423 Y94.423 E2.36551
G1 X75.577 Y94.423 E3.10394
G1 X75.577 Y75.577 E3.84238
G1 X82.484 Y75.577 E4.11300
G1 X82.483 Y77.475 E4.18735
G1 X86.511 Y77.475 E4.34520
G1 X86.510 Y75.577 E4.41955
G1 X94.423 Y75.577 E4.72959
G1 X94.423 Y82.124 E4.98611
G1 X92.489 Y82.125 E5.06187
G1 X92.487 Y86.968 E5.25164
G1 X92.865 Y86.651 F4800.000
G1 X94.800 Y86.654 E5.31240 F900.000
G1 X94.800 Y94.800 E5.56816
G1 X75.200 Y94.800 E6.18351
G1 X75.200 Y75.200 E6.79885
G1 X82.861 Y75.200 E7.03938
G1 X82.860 Y77.097 E7.09895
G1 X86.134 Y77.097 E7.20172
G1 X86.133 Y75.200 E7.26129
G1 X94.800 Y75.200 E7.53340
G1 X94.800 Y82.501 E7.76261
G1 X92.866 Y82.502 E7.82332
G1 X92.865 Y86.591 E7.95170
G1 X92.864 Y87.051 F4800.000
G1 E5.95170 F2400.00000
G92 E0
G1 Z12.150 F4800.000
G1 X93.065 Y84.581 F4800.000
G1 Z11.150 F4800.000
G1 E2.00000 F2400.00000
G1 X95.000 Y84.582 E2.07580 F900.000
G1 E0.07580 F2400.00000
G92 E0
G1 Z12.150 F4800.000
G1 X92.066 Y83.783 F4800.000
G1 X92.066 Y83.783 F4800.000
G1 X92.199 Y83.975 F4800.000
G1 Z11.150 F4800.000
G1 E2.00000 F2400.00000
G1 X84.240 Y77.764 E2.39561 F4800.000
G1 X82.353 Y77.764 F4800.000
G1 X94.134 Y89.545 E3.04845 F4800.000
G1 E1.04845 F2400.00000
G92 E0
G1 Z12.150 F4800.000
G1 X94.000 Y81.701 F4800.000
G1 X94.000 Y81.701 F4800.000
G1 X94.134 Y77.697 F4800.000
G1 Z11.150 F4800.000
G1 E2.00000 F2400.00000
G1 X92.303 Y75.866 E2.10145 F4800.000
G1 X88.575 Y75.866 E2.24754
G1 X94.134 Y80.216 E2.52413
G1 X92.349 Y81.836 E2.61857
G1 X86.800 Y76.287 E2.92605
G1 E0.92605 F2400.00000
G92 E0
G1 Z12.150 F4800.000
G1 X86.933 Y76.000 F4800.000
G1 X86.933 Y76.000 F4800.000
G1 X82.194 Y76.218 F4800.000
G1 Z11.150 F4800.000
G1 E2.00000 F2400.00000
G1 X81.792 Y75.866 E2.02092 F4800.000
G1 X80.455 Y75.866 E2.07332
G1 X82.194 Y77.605 E2.16966
G1 E0.16966 F2400.00000
G92 E0
G1 Z12.150 F4800.000
G1 X75.866 Y76.530 F4800.000
G1 Z11.150 F4800.000
G1 E2.00000 F2400.00000
G1 X94.134 Y90.733 E2.90668 F4800.000
G1 X92.799 Y94.134 E3.04983
G1 X75.866 Y77.201 E3.98812
G1 X75.866 Y81.788 E4.16786
G1 X91.737 Y94.134 E4.95574
G1 X86.875 Y94.134 E5.14627
G1 X75.866 Y83.125 E5.75630
G1 X75.866 Y87.047 E5.90996
G1 X84.955 Y94.134 E6.36157
G1 X80.951 Y94.134 E6.51848
G1 X75.866 Y89.049 E6.80024
G1 X75.866 Y92.305 E6.92783
G1 X78.173 Y94.134 E7.04318
M106 S234.6
G1 E5.04318 F2400.00000
G92 E0
G1 Z12.150 F4800.000
G1 X92.487 Y87.198 F4800.000
G1 Z11.450 F4800.000
G1 E2.00000 F2400.00000
G1 X94.423 Y87.200 E2.07583 F1800.000
G1 X94.423 Y94.423 E2.35883
G1 X75.577 Y94.423 E3.09727
G1 X75.577 Y75.577 E3.83570
G1 X82.315 Y75.577 E4.09971
G1 X82.314 Y77.475 E4.17407
G1 X86.703 Y77.475 E4.34605
G1 X86.702 Y75.577 E4.42040
G1 X94.423 Y75.577 E4.72293
G1 X94.423 Y81.944 E4.97242
G1 X92.490 Y81.945 E5.04816
G1 X92.487 Y87.138 E5.25162
G1 X92.865 Y86.821 F4800.000
G1 X94.800 Y86.824 E5.31237 F900.000
G1 X94.800 Y94.800 E5.56279
G1 X75.200 Y94.800 E6.17814
G1 X75.200 Y75.200 E6.79349
G1 X82.692 Y75.200 E7.02871
G1 X82.692 Y77.098 E7.08829
G1 X86.326 Y77.098 E7.20238
G1 X86.325 Y75.200 E7.26196
G1 X94.800 Y75.200 E7.52805
G1 X94.800 Y82.321 E7.75163
G1 X92.867 Y82.322 E7.81232
G1 X92.866 Y84.402 E7.87762
G1 X94.800 Y84.401 E7.93834
G1 X94.800 Y84.753 E7.94938
G1 X92.866 Y84.751 E8.01011
G1 X92.865 Y86.761 E8.07322
G1 X92.864 Y87.221 F4800.000
G1 X93.025 Y87.487 F4800.000
G1 X86.379 Y94.134 E8.44152 F4800.000
G1 X89.784 Y94.134 E8.57492
G1 X94.134 Y88.575 E8.85151
G1 X94.134 Y92.303 E8.99760
G1 X92.303 Y94.134 E9.09905
G1 E7.09905 F2400.00000
G92 E0
G1 Z12.450 F4800.000
G1 X92.200 Y84.287 F4800.000
G1 Z11.450 F4800.000
G1 E2.00000 F2400.00000
G1 X84.525 Y94.134 E2.48918 F4800.000
G1 X80.455 Y94.134 E2.64865
G1 X92.200 Y82.388 E3.29951
G1 X92.933 Y81.656 F4800.000
G1 X94.134 Y80.455 E3.36605 F4800.000
G1 X93.470 Y75.866 E3.54773
G1 X79.267 Y94.134 E4.45441
G1 X75.866 Y92.799 E4.59756
G1 X92.799 Y75.866 E5.53585
G1 X88.212 Y75.866 E5.71559
G1 X86.992 Y77.388 E5.79200
G1 X86.740 Y77.764 F4800.000
G1 X75.866 Y91.737 E6.48579 F4800.000
G1 X75.866 Y86.875 E6.67632
G1 X84.977 Y77.764 E7.18120
G1 E5.18120 F2400.00000
G92 E0
G1 Z12.450 F4800.000
G1 X82.025 Y77.063 F4800.000
G1 Z11.450 F4800.000
G1 E2.00000 F2400.00000
G1 X75.866 Y84.955 E2.39226 F4800.000
G1 X75.866 Y80.951 E2.54916
G1 X80.951 Y75.866 E2.83093
G1 X77.695 Y75.866 E2.95852
G1 X75.866 Y78.173 E3.07386
G1 E1.07386 F2400.00000
G92 E0
G1 Z12.450 F4800.000
G1 X92.488 Y87.368 F4800.000
G1 Z11.750 F4800.000
G1 E2.00000 F2400.00000
G1 X94.423 Y87.370 E2.07582 F1800.000
G1 X94.423 Y94.423 E2.35216
G1 X75.577 Y94.423 E3.09059
G1 X75.577 Y75.577 E3.82903
G1 X82.146 Y75.577 E4.08643
G1 X82.145 Y77.475 E4.16080
G1 X86.895 Y77.475 E4.34689
G1 X86.894 Y75.577 E4.42126
G1 X94.423 Y75.577 E4.71628
G1 X94.423 Y81.765 E4.95874
G1 X92.490 Y81.766 E5.03445
G1 X92.488 Y87.308 E5.25160
G1 X92.865 Y86.991 F4800.000
G1 X94.800 Y86.994 E5.31234 F900.000
G1 X94.800 Y94.800 E5.55743
G1 X75.200 Y94.800 E6.17278
G1 X75.200 Y75.200 E6.78812
G1 X82.524 Y75.200 E7.01805
G1 X82.523 Y77.098 E7.07764
G1 X86.517 Y77.098 E7.20305
G1 X86.516 Y75.200 E7.26263
G1 X94.800 Y75.200 E7.52270
G1 X94.800 Y82.142 E7.74065
G1 X92.867 Y82.143 E7.80132
G1 X92.866 Y84.227 E7.86675
G1 X94.800 Y84.226 E7.92745
G1 X94.800 Y84.920 E7.94924
G1 X92.866 Y84.917 E8.00995
G1 X92.865 Y86.931 E8.07317
G1 X92.865 Y87.391 F4800.000
G1 E6.07317 F2400.00000
G92 E0
G1 Z12.750 F4800.000
G1 X92.068 Y81.343 F4800.000
G1 X91.269 Y78.731 F4800.000
G1 X89.215 Y77.897 F4800.000
G1 X87.318 Y77.898 F4800.000
G1 X84.544 Y75.000 F4800.000
G1 Z11.750 F4800.000
G1 E2.00000 F2400.00000
G1 X84.544 Y76.898 E2.07437 F900.000
G1 X84.240 Y77.764 F4800.000
G1 X92.200 Y83.976 E2.46999 F4800.000
G1 X92.199 Y87.610 E2.61239
G1 X82.353 Y77.764 E3.15797
G1 X81.856 Y77.268 F4800.000
G1 X80.455 Y75.866 E3.23562 F4800.000
G1 X75.866 Y76.530 E3.41730
G1 X94.134 Y90.733 E4.32399
G1 X94.134 Y89.545 E4.37055
G1 X92.246 Y87.657 E4.47518
G1 E2.47518 F2400.00000
G92 E0
G1 Z12.750 F4800.000
G1 X92.201 Y81.689 F4800.000
G1 Z11.750 F4800.000
G1 E2.00000 F2400.00000
G1 X87.183 Y76.671 E2.27806 F4800.000
G1 E0.27806 F2400.00000
G92 E0
G1 Z12.750 F4800.000
G1 X94.134 Y77.697 F4800.000
G1 Z11.750 F4800.000
G1 E2.00000 F2400.00000
G1 X92.303 Y75.866 E2.10145 F4800.000
G1 X88.575 Y75.866 E2.24754
G1 X94.134 Y80.216 E2.52413
G1 E0.52413 F2400.00000
G92 E0
G1 Z12.750 F4800.000
G1 X94.000 Y87.792 F4800.000
G1 X92.062 Y89.728 F4800.000
G1 X90.757 Y90.757 F4800.000
G1 X94.000 Y94.000 F4800.000
G1 X92.799 Y94.134 F4800.000
G1 Z11.750 F4800.000
G1 E2.00000 F2400.00000
G1 X75.866 Y77.201 E2.93829 F4800.000
G1 E0.93829 F2400.00000
G92 E0
G1 Z12.750 F4800.000
G1 X75.866 Y92.305 F4800.000
G1 Z11.750 F4800.000
G1 E2.00000 F2400.00000
G1 X78.173 Y94.134 E2.11535 F4800.000
G1 X80.951 Y94.134 E2.22419
G1 X75.866 Y89.049 E2.50596
G1 X75.866 Y87.047 E2.58441
G1 X84.955 Y94.134 E3.03602
G1 X86.875 Y94.134 E3.11123
G1 X75.866 Y83.125 E3.72126
G1 X75.866 Y81.788 E3.77364
G1 X91.737 Y94.134 E4.56152
G1 E2.56152 F2400.00000
G92 E0
G1 Z12.750 F4800.000
G1 X92.678 Y84.572 F4800.000
G1 Z11.750 F4800.000
G1 E2.00000 F2400.00000
G1 X94.611 Y84.573 E2.16318 F2400.000
G1 E0.16318 F2400.00000
G92 E0
G1 Z12.750 F4800.000
G1 X92.488 Y87.538 F4800.000
G1 Z12.050 F4800.000
G1 E2.00000 F2400.00000
G1 X94.423 Y87.540 E2.07580 F1800.000
G1 X94.423 Y94.423 E2.34548
G1 X75.577 Y94.423 E3.08392
G1 X75.577 Y75.577 E3.82235
G1 X81.978 Y75.577 E4.07314
G1 X81.977 Y77.475 E4.14752
G1 X87.087 Y77.475 E4.34774
G1 X87.085 Y75.577 E4.42212
G1 X94.423 Y75.577 E4.70962
G1 X94.423 Y81.586 E4.94505
G1 X92.491 Y81.587 E5.02075
G1 X92.490 Y84.429 E5.13212
G1 X94.423 Y84.428 E5.20787
G1 X94.423 Y84.709 E5.21888
G1 X92.489 Y84.707 E5.29463
G1 X92.488 Y87.478 E5.40322
G1 X92.866 Y87.161 F4800.000
G1 X94.800 Y87.164 E5.46395 F900.000
G1 X94.800 Y94.800 E5.70370
G1 X75.200 Y94.800 E6.31904
G1 X75.200 Y75.200 E6.93439
G1 X82.355 Y75.200 E7.15902
G1 X82.354 Y77.098 E7.21862
G1 X84.416 Y77.098 E7.28334
G1 X84.417 Y75.200 E7.34294
G1 X84.691 Y75.200 E7.35155
G1 X84.692 Y77.098 E7.41115
G1 X86.709 Y77.098 E7.47447
G1 X86.708 Y75.200 E7.53406
G1 X94.800 Y75.200 E7.78811
G1 X94.800 Y81.963 E8.00043
G1 X92.868 Y81.964 E8.06109
G1 X92.867 Y84.051 E8.12663
G1 X94.800 Y84.051 E8.18732
G1 X94.800 Y85.087 E8.21985
G1 X92.867 Y85.084 E8.28055
G1 X92.866 Y87.101 E8.34387
G1 X92.865 Y87.561 F4800.000
G1 X92.686 Y87.827 F4800.000
G1 X86.379 Y94.134 E8.69335 F4800.000
G1 X89.784 Y94.134 E8.82675
G1 X94.134 Y88.575 E9.10334
G1 X94.134 Y92.303 E9.24943
G1 X92.303 Y94.134 E9.35088
G1 E7.35088 F2400.00000
G92 E0
G1 Z13.050 F4800.000
G1 X92.201 Y84.286 F4800.000
G1 Z12.050 F4800.000
G1 E2.00000 F2400.00000
G1 X84.525 Y94.134 E2.48923 F4800.000
G1 X80.455 Y94.134 E2.64871
G1 X92.201 Y82.387 E3.29962
G1 X93.292 Y81.297 F4800.000
G1 X94.134 Y80.455 E3.34627 F4800.000
G1 X93.470 Y75.866 E3.52795
G1 X79.267 Y94.134 E4.43463
G1 X75.866 Y92.799 E4.57778
G1 X92.799 Y75.866 E5.51607
G1 X88.212 Y75.866 E5.69581
G1 X87.375 Y76.894 E5.74772
G1 X86.740 Y77.765 F4800.000
G1 X75.866 Y91.737 E6.44148 F4800.000
G1 X75.866 Y86.875 E6.63201
G1 X84.977 Y77.765 E7.13686
G1 E5.13686 F2400.00000
G92 E0
G1 Z13.050 F4800.000
G1 X81.688 Y77.499 F4800.000
G1 Z12.050 F4800.000
G1 E2.00000 F2400.00000
G1 X75.866 Y84.955 E2.37067 F4800.000
G1 X75.866 Y80.951 E2.52757
G1 X80.951 Y75.866 E2.80934
G1 X77.695 Y75.866 E2.93693
G1 X75.866 Y78.173 E3.05228
G1 E1.05228 F2400.00000
G92 E0
G1 Z13.050 F4800.000
G1 X92.489 Y87.708 F4800.000
G1 Z12.350 F4800.000
G1 E2.00000 F2400.00000
G1 X94.423 Y87.710 E2.07579 F1800.000
G1 X94.423 Y94.423 E2.33881
G1 X75.577 Y94.423 E3.07724
G1 X75.577 Y75.577 E3.81568
G1 X81.809 Y75.577 E4.05986
G1 X81.808 Y77.476 E4.13425
G1 X87.278 Y77.476 E4.34859
G1 X87.277 Y75.577 E4.42298
G1 X94.423 Y75.577 E4.70296
G1 X94.423 Y81.406 E4.93136
G1 X92.491 Y81.407 E5.00704
G1 X92.490 Y84.253 E5.11857
G1 X94.423 Y84.253 E5.19430
G1 X94.423 Y84.876 E5.21872
G1 X92.490 Y84.873 E5.29446
G1 X92.489 Y87.648 E5.40317
G1 X92.866 Y87.331 F4800.000
G1 X94.800 Y87.333 E5.46388 F900.000
G1 X94.800 Y94.800 E5.69830
G1 X75.200 Y94.800 E6.31364
G1 X75.200 Y75.200 E6.92899
G1 X82.186 Y75.200 E7.14833
G1 X82.185 Y77.098 E7.20793
G1 X84.246 Y77.098 E7.27263
G1 X84.247 Y75.200 E7.33223
G1 X84.880 Y75.200 E7.35211
G1 X84.881 Y77.098 E7.41171
G1 X86.901 Y77.098 E7.47511
G1 X86.900 Y75.200 E7.53471
G1 X94.800 Y75.200 E7.78274
G1 X94.800 Y81.783 E7.98943
G1 X92.869 Y81.784 E8.05007
G1 X92.868 Y83.876 E8.11574
G1 X94.800 Y83.875 E8.17641
G1 X94.800 Y85.254 E8.21969
G1 X92.867 Y85.251 E8.28037
G1 X92.866 Y87.271 E8.34379
G1 X92.866 Y87.731 F4800.000
G1 E6.34379 F2400.00000
G92 E0
G1 Z13.350 F4800.000
G1 X92.281 Y84.563 F4800.000
G1 Z12.350 F4800.000
G1 E2.00000 F2400.00000
G1 X94.213 Y84.564 E2.07573 F2400.000
G1 E0.07573 F2400.00000
G92 E0
G1 Z13.350 F4800.000
G1 X92.201 Y83.976 F4800.000
G1 Z12.350 F4800.000
G1 E2.00000 F2400.00000
G1 X84.241 Y77.765 E2.39564 F4800.000
G1 X82.354 Y77.765 F4800.000
G1 X92.200 Y87.611 E2.94125 F4800.000
G1 X92.586 Y87.997 F4800.000
G1 X94.134 Y89.545 E3.02701 F4800.000
G1 X94.134 Y90.733 E3.07358
G1 X75.866 Y76.530 E3.98026
G1 X80.455 Y75.866 E4.16194
G1 X81.519 Y76.930 E4.22090
G1 E2.22090 F2400.00000
G92 E0
G1 Z13.350 F4800.000
G1 X87.567 Y77.054 F4800.000
G1 Z12.350 F4800.000
G1 E2.00000 F2400.00000
G1 X92.202 Y81.690 E2.25685 F4800.000
G1 E0.25685 F2400.00000
G92 E0
G1 Z13.350 F4800.000
G1 X94.134 Y80.216 F4800.000
G1 Z12.350 F4800.000
G1 E2.00000 F2400.00000
G1 X88.575 Y75.866 E2.27659 F4800.000
G1 X92.303 Y75.866 E2.42268
G1 X94.134 Y77.697 E2.52413
G1 E0.52413 F2400.00000
G92 E0
G1 Z13.350 F4800.000
G1 X94.000 Y88.132 F4800.000
G1 X92.063 Y90.067 F4800.000
G1 X90.961 Y90.961 F4800.000
G1 X94.000 Y94.000 F4800.000
G1 X92.799 Y94.134 F4800.000
G1 Z12.350 F4800.000
G1 E2.00000 F2400.00000
G1 X75.866 Y77.201 E2.93829 F4800.000
G1 X75.866 Y81.788 E3.11803
G1 X91.737 Y94.134 E3.90591
G1 X86.875 Y94.134 E4.09644
G1 X75.866 Y83.125 E4.70647
G1 X75.866 Y87.047 E4.86014
G1 X84.955 Y94.134 E5.31174
G1 X80.951 Y94.134 E5.46865
G1 X75.866 Y89.049 E5.75041
G1 X75.866 Y92.305 E5.87800
G1 X78.173 Y94.134 E5.99335
G1 E3.99335 F2400.00000
G92 E0
G1 Z13.350 F4800.000
G1 X84.564 Y77.287 F4800.000
G1 Z12.350 F4800.000
G1 E2.00000 F2400.00000
G1 X84.564 Y75.389 E2.07439 F2400.000
G1 E0.07439 F2400.00000
G92 E0
G1 Z13.350 F4800.000
G1 X92.489 Y87.878 F4800.000
G1 Z12.650 F4800.000
G1 E2.00000 F2400.00000
G1 X94.423 Y87.880 E2.07577 F1800.000
G1 X94.423 Y94.423 E2.33213
G1 X75.577 Y94.423 E3.07057
G1 X75.577 Y75.577 E3.80900
G1 X81.640 Y75.577 E4.04657
G1 X81.639 Y77.476 E4.12097
G1 X87.470 Y77.476 E4.34944
G1 X87.469 Y75.577 E4.42384
G1 X94.423 Y75.577 E4.69631
G1 X94.423 Y81.227 E4.91768
G1 X92.492 Y81.228 E4.99333
G1 X92.491 Y84.078 E5.10502
G1 X94.423 Y84.077 E5.18073
G1 X94.423 Y85.043 E5.21856
G1 X92.490 Y85.040 E5.29428
G1 X92.489 Y87.818 E5.40311
G1 X92.866 Y87.501 F4800.000
G1 X94.800 Y87.503 E5.46382 F900.000
G1 X94.800 Y94.800 E5.69289
G1 X75.200 Y94.800 E6.30824
G1 X75.200 Y75.200 E6.92359
G1 X82.018 Y75.200 E7.13763
G1 X82.017 Y77.099 E7.19724
G1 X84.077 Y77.099 E7.26191
G1 X84.078 Y75.200 E7.32152
G1 X85.070 Y75.200 E7.35267
G1 X85.071 Y77.099 E7.41228
G1 X87.093 Y77.099 E7.47575
G1 X87.092 Y75.200 E7.53536
G1 X94.800 Y75.200 E7.77737
G1 X94.800 Y81.604 E7.97842
G1 X92.869 Y81.605 E8.03905
G1 X92.868 Y83.701 E8.10485
G1 X94.800 Y83.700 E8.16550
G1 X94.800 Y85.420 E8.21952
G1 X92.867 Y85.418 E8.28019
G1 X92.866 Y87.441 E8.34371
G1 X92.866 Y87.901 F4800.000
G1 E6.34371 F2400.00000
G92 E0
G1 Z13.650 F4800.000
G1 X92.281 Y84.559 F4800.000
G1 Z12.650 F4800.000
G1 E2.00000 F2400.00000
G1 X94.213 Y84.560 E2.16306 F2400.000
G1 E0.16306 F2400.00000
G92 E0
